!!!!SEGMENT: pl-wumfc--r302_paderewski-ignacy-jan--hej-orle-bialy.krn
!!!cenid: 18xx:3218
!!!COM: Paderewski, Ignacy Jan
!!!COM-rismID: pe30029943
!!!CDT: 1860/11/18-1941/06/29
!!!CNT: Polish
!!!OTL: Hej orle Biały
!!!PDT:
!!!AGN:
!!!SMS-siglum: PL-Wumfc
!!!SMS-shelfmark: R302
!!!SMS-shelfwork: W
!!!SMS-variant:
!!!SMS-altvar:
!!!NIFC-rismSourceID: 1001159512
!!!NIFC-rismChildID: 1001159512
!!!NIFC-islandoraID: pl-wumfc:628
!!!URL-pdf-islandora: https://repozytorium.nifc.pl/islandora/object/pl-wumfc%3A628/datastream/PDF/view
!!!URL-scan: https://polish.musicsources.pl/pl/lokalizacje/galeria/rekopisy/4723 @EN{Scan on Polish Music Sources Website} @PL{Skany w portalu Dziedzictwo Muzyki Polskiej w otwartym dostępie}
!!!ONB-nifc:
!!!AIN: 2 clars 2 cor 2 fagot 1 flt 2 oboe 1 picco 1 sdrum 1 timpa 2 tromp 1 tromt 1 tuba 1 violn 2 vox
!!!key:
!!!filter-modern: sic -sq | shed -e "s/TX(.*):t=P:/tx$1:t=P:/LG" | shed -e "s/^(X?)rep$/$1REP/I" | shed -e "s/yy//" | shed -e "s/:rj/:RJ/L" | shed -k -e "s/[<>]//g" | shed -e "s/LO:DY:(a|b|rj)/LO:dy:$1/L" | shed -e "s/-//B" | modori -m | humtr -p | extract -k 3,1-2,4-$
**kern	**text	**mod-text	**dynam	**mod-dynam	**kern	**text	**dynam	**kern	**kern	**dynam	**kern	**dynam	**kern	**dynam	**kern	**dynam	**kern	**dynam	**kern	**dynam	**kern	**dynam	**kern	**dynam	**kern	**kern	**kern	**kern	**kern	**kern	**kern	**kern
*group4	*	*	*	*	*group4	*	*	*	*group3	*	*group3	*	*group2	*	*group2	*	*group2	*	*group2	*	*group2	*	*group2	*	*group1	*group1	*group1	*group1	*group1	*group1	*group1	*group1
*part19	*part19	*part19	*part19	*part19	*part18	*part18	*part18	*part17	*part16	*part16	*part15	*part15	*part14	*part14	*part13	*part13	*part12	*part12	*part11	*part11	*part10	*part10	*part9	*part9	*part8	*part7	*part6	*part5	*part4	*part3	*part2	*part1
*staff19	*staff19	*staff19	*	*	*staff18	*staff18	*	*staff17	*staff16	*	*staff15	*	*staff14	*	*staff13	*	*staff12	*	*staff11	*	*staff10	*	*staff9	*	*staff8	*staff7	*staff6	*staff5	*staff4	*staff3	*staff2	*staff1
*I"Basso	*	*	*	*	*I"Voce	*	*	*I"Violino I	*I"Werbel	*	*I"Kotły	*	*I"Tuba	*	*I"3 Puz	*	*I"Tromba in C	*	*I"4 Tręby	*	*I"Corno in F	*	*I"4 walt.	*	*I"I	*I"Fag	*I"Clarinetto in B♭	*I"Cl.b	*I"Oboe	*I"Ob.	*I"Flauto	*I"Picc.
*I'B	*	*	*	*	*I'S	*	*	*I'	*I'werb	*	*I'kot	*	*I'tb	*	*I'trb	*	*I'tr 2	*	*I'tr	*	*I'cor 2	*	*I'cor	*	*I'fag 2	*I'fag	*I'cl in B 2	*I'cl in B	*I'ob 2	*I'ob	*I'fl	*I'fl.picc
*Ivox	*	*	*	*	*Ivox	*	*	*Ivioln	*Isdrum	*	*Itimpa	*	*Ituba	*	*Itromt	*	*Itromp	*	*Itromp	*	*Icor	*	*Icor	*	*Ifagot	*Ifagot	*Iclars	*Iclars	*Ioboe	*Ioboe	*Iflt	*Ipicco
*ICvox	*	*	*	*	*ICvox	*	*	*ICstr	*ICidio	*	*ICidio	*	*ICbras	*	*ICbras	*	*ICbras	*	*ICbras	*	*ICbras	*	*ICbras	*	*ICww	*ICww	*ICww	*ICww	*ICww	*ICww	*ICww	*ICww
*IGcoro	*	*	*	*	*IGcoro	*	*	*	*	*	*	*	*	*	*	*	*	*	*	*	*	*	*	*	*	*	*	*	*	*	*	*
*mI"Tenore e Basso	*	*	*	*	*mI"Soprano e Alto	*	*	*	*mI"Tamburo militare	*	*mI"Timpani	*	*mI"Tuba	*	*mI"3 Tromboni	*	*mI"Tromba III e IV	*	*mI"Tromba I e II	*	*mI"Corni III e IV in F	*	*mI"Corni I e II in F	*	*mI"Fagotto II	*mI"Fagotto I	*mI"Clarinetto II in Bb	*mI"Clarinetto I in Bb	*mI"Oboe II	*mI"Oboe I	*mI"Flauto	*mI"Piccolo
*mI'T & B	*	*	*	*	*mI'S & A	*	*	*mI'vl 1	*mI'tamb	*	*mI'timp	*	*mI'tb	*	*mI'3 trb	*	*mI'tr 3 & 4	*	*mI'tr 1 & 2	*	*mI'cor 3 & 4 in F	*	*mI'cor 1 & 2 in F	*	*mI'fag 2	*mI'fag 1	*mI'cl 2 in B|b	*mI'cl 1 in B|b	*mI'ob 2	*mI'ob 1	*mI'fl	*mI'fl.picc
*clefF4	*	*	*	*	*clefG2	*	*	*clefG2	*clefG2	*	*clefF4	*	*clefF4	*	*clefC4	*	*clefG2	*	*clefG2	*	*clefG2	*	*clefG2	*	*clefF4	*clefF4	*clefG2	*clefG2	*clefG2	*clefG2	*clefG2	*clefG2
*	*	*	*	*	*	*	*	*	*	*	*	*	*	*	*	*	*	*	*	*	*ITrd4c7	*	*ITrd4c7	*	*	*	*ITrd1c2	*ITrd1c2	*	*	*	*ITrd0c0
*k[b-]	*	*	*	*	*k[b-]	*	*	*k[b-]	*k[]	*	*k[]	*	*k[b-]	*	*k[b-]	*	*k[]	*	*k[]	*	*k[b-]	*	*k[b-]	*	*k[b-]	*k[b-]	*k[b-]	*k[b-]	*k[b-]	*k[b-]	*k[b-]	*k[b-]
*F:	*	*	*	*	*F:	*	*	*F:	*F:	*	*F:	*	*F:	*	*F:	*	*F:	*	*F:	*	*F:	*	*F:	*	*F:	*F:	*F:	*F:	*F:	*F:	*F:	*F:
*M4/4	*	*	*	*	*M4/4	*	*	*M4/4	*M4/4	*	*M4/4	*	*M4/4	*	*M4/4	*	*M4/4	*	*M4/4	*	*M4/4	*	*M4/4	*	*M4/4	*M4/4	*M4/4	*M4/4	*M4/4	*M4/4	*M4/4	*M4/4
*met(c)	*	*	*	*	*met(c)	*	*	*met(c)	*met(c)	*	*met(c)	*	*met(c)	*	*met(c)	*	*met(c)	*	*met(c)	*	*met(c)	*	*met(c)	*	*met(c)	*met(c)	*met(c)	*met(c)	*met(c)	*met(c)	*met(c)	*met(c)
*mmet(c)	*	*	*	*	*mmet(c)	*	*	*mmet(c)	*mmet(c)	*	*mmet(c)	*	*mmet(c)	*	*mmet(c)	*	*mmet(c)	*	*mmet(c)	*	*mmet(c)	*	*mmet(c)	*	*mmet(c)	*mmet(c)	*mmet(c)	*mmet(c)	*mmet(c)	*mmet(c)	*mmet(c)	*mmet(c)
*	*	*	*	*	*	*	*	*tacet	*	*	*	*	*	*	*	*	*	*	*	*	*	*	*	*	*tacet	*tacet	*tacet	*tacet	*tacet	*tacet	*tacet	*tacet
=1	=1	=1	=1	=1	=1	=1	=1	=1	=1	=1	=1	=1	=1	=1	=1	=1	=1	=1	=1	=1	=1	=1	=1	=1	=1	=1	=1	=1	=1	=1	=1	=1
!!!OMD:
!!!OMD-mod: Allegro risoluto
*	*	*	*	*	*	*	*	*	*	*	*	*	*^	*	*^	*	*	*	*^	*	*^	*	*^	*	*	*	*	*	*	*	*	*
!	!	!	!	!	!	!	!	!	!	!	!	!	!	!	!LO:MO:null:mod=!LO&colon;DY&colon;ed=brack	!	!	!	!	!	!	!	!	!	!	!	!	!	!	!	!	!	!	!	!	!	!
!	!	!	!	!	!	!	!	!	!	!	!	!	!	!	!	!	!	!	!	!	!	!	!	!	!	!	!	!	!	!	!	!	!	!	!	!	!
!	!	!	!	!	!	!	!	!	!	!	!	!LO:DY:rj	!	!	!LO:MO:null:mod=f	!	!	!LO:MO:null:mod=.	!	!	!	!	!	!	!	!	!	!	!	!	!	!	!	!	!	!	!LO:TX:a:t=Allegro risoluto:mod=
1r	.	.	.	.	1r	.	.	1r	1r	.	4F\	f	4F/	4FF\	.	4r	4ryy	f	4r	.	4r	4ryy	.	2r	2ryy	.	2r	2ryy	.	1ryy	1ryy	1ryy	1ryy	1ryy	1ryy	1ryy	1ryy
!	!	!	!	!	!	!	!	!	!	!	!	!	!	!	!	!	!	!	!	!LO:MO:null:mod=!LO&colon;DY&colon;ed=brack	!	!	!	!	!	!	!	!	!	!	!	!	!	!	!	!	!
!	!	!	!	!	!	!	!	!	!	!	!	!	!	!	!	!	!	!	!	!	!	!	!	!	!	!	!	!	!	!	!	!	!	!	!	!	!
!	!	!	!	!	!	!	!	!	!	!	!	!	!	!	!	!	!	!LO:MO:null:mod=f	!	!LO:MO:null:mod=f	!	!	!LO:DY:a	!	!	!	!	!	!	!	!	!	!	!	!	!	!
.	.	.	.	.	.	.	.	.	.	.	4r	.	4r	4ryy	.	8.A/L	8.A\L	.	8.f/L	.	8.a/L	8.a\L	f	.	.	.	.	.	.	.	.	.	.	.	.	.	.
.	.	.	.	.	.	.	.	.	.	.	.	.	.	.	.	16F/Jk	16F\Jk	.	16d/Jk	.	16f/Jk	16f\Jk	.	.	.	.	.	.	.	.	.	.	.	.	.	.	.
.	.	.	.	.	.	.	.	.	.	.	4r	.	4r	4ryy	.	[2c/	[2c\	.	[>2c/	.	[2cc/	2cc\	.	4r	4ryy	.	4r	4ryy	.	.	.	.	.	.	.	.	.
.	.	.	.	.	.	.	.	.	.	.	16qqC\LL	.	.	.	.	.	.	.	.	.	.	.	.	.	.	.	.	.	.	.	.	.	.	.	.	.	.
.	.	.	.	.	.	.	.	.	.	.	16qqC\	.	.	.	.	.	.	.	.	.	.	.	.	.	.	.	.	.	.	.	.	.	.	.	.	.	.
.	.	.	.	.	.	.	.	.	.	.	16qqC\JJ	.	.	.	.	.	.	.	.	.	.	.	.	.	.	.	.	.	.	.	.	.	.	.	.	.	.
!	!	!	!	!	!	!	!	!	!	!	!	!	!	!	!	!	!	!	!	!	!	!	!	!	!	!LO:MO:null:mod=!LO&colon;DY&colon;ed=brack	!	!	!	!	!	!	!	!	!	!	!
!	!	!	!	!	!	!	!	!	!	!	!	!	!	!	!	!	!	!	!	!	!	!	!	!	!	!	!	!	!	!	!	!	!	!	!	!	!
!	!	!	!	!	!	!	!	!	!	!	!	!	!	!	!	!	!	!	!	!	!	!	!	!	!	!LO:MO:null:mod=f	!	!	!LO:DY:a	!	!	!	!	!	!	!	!
.	.	.	.	.	.	.	.	.	.	.	4C/	.	4C/	4C\	.	.	.	.	.	.	.	.	.	8.f/L	8.d\L	.	(8.f/L	8.d\L	f	.	.	.	.	.	.	.	.
.	.	.	.	.	.	.	.	.	.	.	.	.	.	.	.	.	.	.	.	.	.	.	.	16g/Jk	16e\Jk	.	16g/Jk)	16e\Jk	.	.	.	.	.	.	.	.	.
=2	=2	=2	=2	=2	=2	=2	=2	=2	=2	=2	=2	=2	=2	=2	=2	=2	=2	=2	=2	=2	=2	=2	=2	=2	=2	=2	=2	=2	=2	=2	=2	=2	=2	=2	=2	=2	=2
1r	.	.	.	.	1r	.	.	1r	1r	.	4F\	.	8F/	8FF\	.	8c/]	8c\]	.	8c/]	.	8cc/]	8cc\	.	8a/	8f\	.	8a/	8f\	.	1ryy	1ryy	1ryy	1ryy	1ryy	1ryy	1ryy	1ryy
.	.	.	.	.	.	.	.	.	.	.	.	.	8r	8ryy	.	8r	8ryy	.	8r	.	8ryy	8r	.	8r	8ryy	.	8r	8ryy	.	.	.	.	.	.	.	.	.
.	.	.	.	.	.	.	.	.	.	.	4r	.	4r	4ryy	.	8.A/L	8.A\L	.	8.f/L	.	8.a/L	8.a\L	.	4r	4ryy	.	4r	4ryy	.	.	.	.	.	.	.	.	.
.	.	.	.	.	.	.	.	.	.	.	.	.	.	.	.	16F/Jk	16F\Jk	.	16d/Jk	.	16f/Jk	16f\Jk	.	.	.	.	.	.	.	.	.	.	.	.	.	.	.
.	.	.	.	.	.	.	.	.	.	.	4r	.	4r	4ryy	.	2c/	2c\	.	[>2c/	.	[2cc/	[2cc\	.	4r	4ryy	.	4r	4ryy	.	.	.	.	.	.	.	.	.
.	.	.	.	.	.	.	.	.	.	.	16qqC\LL	.	.	.	.	.	.	.	.	.	.	.	.	.	.	.	.	.	.	.	.	.	.	.	.	.	.
.	.	.	.	.	.	.	.	.	.	.	16qqC\	.	.	.	.	.	.	.	.	.	.	.	.	.	.	.	.	.	.	.	.	.	.	.	.	.	.
.	.	.	.	.	.	.	.	.	.	.	16qqC\JJ	.	.	.	.	.	.	.	.	.	.	.	.	.	.	.	.	.	.	.	.	.	.	.	.	.	.
.	.	.	.	.	.	.	.	.	.	.	4C/	.	4C/	4C\	.	.	.	.	.	.	.	.	.	8.f/L	8.d\L	.	(8.f/L	8.d\L	.	.	.	.	.	.	.	.	.
.	.	.	.	.	.	.	.	.	.	.	.	.	.	.	.	.	.	.	.	.	.	.	.	16g/Jk	16e\Jk	.	16g/Jk)	16e\Jk	.	.	.	.	.	.	.	.	.
=3	=3	=3	=3	=3	=3	=3	=3	=3	=3	=3	=3	=3	=3	=3	=3	=3	=3	=3	=3	=3	=3	=3	=3	=3	=3	=3	=3	=3	=3	=3	=3	=3	=3	=3	=3	=3	=3
1r	.	.	.	.	1r	.	.	1r	1r	.	4F\	.	8F/	8FF\	.	8c/	8c\	.	8c/]	.	8cc/]	8cc\]	.	8a/	8f\	.	8a/	8f\	.	1ryy	1ryy	1ryy	1ryy	1ryy	1ryy	1ryy	1ryy
.	.	.	.	.	.	.	.	.	.	.	.	.	8r	8ryy	.	8r	8ryy	.	8r	.	8r	8ryy	.	8r	8ryy	.	8r	8ryy	.	.	.	.	.	.	.	.	.
.	.	.	.	.	.	.	.	.	.	.	4ryy	.	4r	4ryy	.	8.A/L	8.A\L	.	8.f/L	.	8.a/L	4ryy	.	4r	4ryy	.	4r	4ryy	.	.	.	.	.	.	.	.	.
.	.	.	.	.	.	.	.	.	.	.	.	.	.	.	.	16F/Jk	16F\Jk	.	16d/Jk	.	16f/Jk	.	.	.	.	.	.	.	.	.	.	.	.	.	.	.	.
.	.	.	.	.	.	.	.	.	.	.	2ryy	.	8r	8ryy	.	8c/	8c\	.	2c/	.	2cc/	2ryy	.	8r	8ryy	.	8r	8ryy	.	.	.	.	.	.	.	.	.
.	.	.	.	.	.	.	.	.	.	.	.	.	8C/L	8C\L	.	8r	8ryy	.	.	.	.	.	.	8c/L	8c\L	.	8c/L	8c\L	.	.	.	.	.	.	.	.	.
.	.	.	.	.	.	.	.	.	.	.	.	.	8F/	8F\	.	8F/L	8F\L	.	.	.	.	.	.	8f/	8f\	.	8f/	8f\	.	.	.	.	.	.	.	.	.
.	.	.	.	.	.	.	.	.	.	.	.	.	8A/J	8A\J	.	8A/J	8A\J	.	.	.	.	.	.	8a/J	8a\J	.	8a/J	8a\J	.	.	.	.	.	.	.	.	.
=4	=4	=4	=4	=4	=4	=4	=4	=4	=4	=4	=4	=4	=4	=4	=4	=4	=4	=4	=4	=4	=4	=4	=4	=4	=4	=4	=4	=4	=4	=4	=4	=4	=4	=4	=4	=4	=4
*	*	*	*	*	*	*	*	*	*	*	*	*	*	*	*	*	*	*	*^	*	*	*	*	*	*	*	*	*	*	*	*	*	*	*	*	*	*
1r	.	.	.	.	1r	.	.	1r	1cc\T	p < [[	1ryy	.	8.F/L	8.F\L	.	8.A/L	8.A\L	.	8c/	2r	.	8.cc/L	8.cc\L	.	8.a/L	8a\	.	8.a/L	8a\	.	1ryy	1ryy	1ryy	1ryy	1ryy	1ryy	1ryy	1ryy
.	.	.	.	.	.	.	.	.	.	.	.	.	.	.	.	.	.	.	8r	.	.	.	.	.	.	8r	.	.	8r	.	.	.	.	.	.	.	.	.
.	.	.	.	.	.	.	.	.	.	.	.	.	16E/Jk	16E\Jk	.	16B-/Jk	16B-\Jk	.	.	.	.	16dd/Jk	16dd\Jk	.	16g#X/Jk	.	.	16g#X/Jk	.	.	.	.	.	.	.	.	.	.
*	*	*	*	*	*	*	*	*	*	*	*	*	*rep	*rep	*	*rep	*rep	*	*	*	*	*rep	*rep	*	*	*	*	*	*	*	*	*	*	*	*	*	*	*
.	.	.	.	.	.	.	.	.	.	.	.	.	8.F/L	8.F\L	<	8.A/L	8.A\L	.	4r	.	.	8.cc/L	8.cc\L	.	8.a/L	4r	.	8.a/L	4r	.	.	.	.	.	.	.	.	.
.	.	.	.	.	.	.	.	.	.	.	.	.	16E/Jk	16E\Jk	.	16B-/Jk	16B-\Jk	.	.	.	.	16dd/Jk	16dd\Jk	.	16g#/Jk	.	.	16g#/Jk	.	.	.	.	.	.	.	.	.	.
*	*	*	*	*	*	*	*	*	*	*	*	*	*Xrep	*Xrep	*	*Xrep	*Xrep	*	*	*	*	*Xrep	*Xrep	*	*	*	*	*	*	*	*	*	*	*	*	*	*	*
*	*	*	*	*	*	*	*	*	*	*	*	*	*rep	*rep	*	*rep	*rep	*	*	*	*	*rep	*rep	*	*	*	*	*	*	*	*	*	*	*	*	*	*	*
!	!	!	!	!	!	!	!	!	!	!	!	!	!	!	!	!	!	!	!	!	!	!	!	!	!	!	!	!	!	!LO:HP:a	!	!	!	!	!	!	!	!
.	.	.	.	.	.	.	.	.	.	.	.	.	8.F/L	8.F\L	.	8.A/L	8.A\L	.	8.cc\L	4rgg	.	8.cc/L	8.cc\L	.	8.a/L	4r	.	8.a/L	8.a\L	<	.	.	.	.	.	.	.	.
.	.	.	.	.	.	.	.	.	.	.	.	.	16E/Jk	16E\Jk	.	16B-/Jk	16B-\Jk	.	16dd\Jk	.	.	16dd/Jk	16dd\Jk	.	16g#/Jk	.	.	16g#X/Jk	16g#\Jk	.	.	.	.	.	.	.	.	.
*	*	*	*	*	*	*	*	*	*	*	*	*	*Xrep	*Xrep	*	*Xrep	*Xrep	*	*	*	*	*Xrep	*Xrep	*	*	*	*	*	*	*	*	*	*	*	*	*	*	*
*	*	*	*	*	*	*	*	*	*	*	*	*	*rep	*rep	*	*rep	*rep	*	*	*	*	*rep	*rep	*	*	*	*	*	*	*	*	*	*	*	*	*	*	*
.	.	.	.	.	.	.	.	.	.	.	.	.	8.F/L	8.F\L	.	8.A/L	8.A\L	.	8.cc\L	8.cc/L	.	8.cc/L	8.cc\L	.	8.a/L	8.a\L	.	8.a/L	8.a\L	.	.	.	.	.	.	.	.	.
.	.	.	.	.	.	.	.	.	.	.	.	.	16E/Jk	16E\Jk	.	16B-/Jk	16B-\Jk	.	16dd\Jk	16dd/Jk	.	16dd/Jk	16dd\Jk	.	16g#X/Jk	16g#\Jk	.	16g#/Jk	16g#\Jk	.	.	.	.	.	.	.	.	.
*	*	*	*	*	*	*	*	*	*	*	*	*	*Xrep	*Xrep	*	*Xrep	*Xrep	*	*	*	*	*Xrep	*Xrep	*	*	*	*	*	*	*	*	*	*	*	*	*	*	*
=5	=5	=5	=5	=5	=5	=5	=5	=5	=5	=5	=5	=5	=5	=5	=5	=5	=5	=5	=5	=5	=5	=5	=5	=5	=5	=5	=5	=5	=5	=5	=5	=5	=5	=5	=5	=5	=5	=5
1r	.	.	.	.	1r	.	.	1r	4cc\	.	2r	.	2F/	2F\	[	2A/	2A\	.	2cc\	2cc/	.	2cc/	2cc\	.	2a/	2a\	.	2a/	2a\	[	1ryy	1ryy	1ryy	1ryy	1ryy	1ryy	1ryy	1ryy
.	.	.	.	.	.	.	.	.	4r	.	.	.	.	.	.	.	.	.	.	.	.	.	.	.	.	.	.	.	.	.	.	.	.	.	.	.	.	.
!	!	!	!	!	!	!	!	!	!	!	!	!	!	!	!LO:MO:mod=!null:null	!	!	!LO:MO:mod=!null:null	!	!	!	!	!	!	!	!	!	!	!	!	!	!	!	!	!	!	!	!
!	!	!	!	!	!	!	!	!	!	!	!	!	!	!	!LO:DY:rj:a	!	!	!LO:DY:rj:a	!	!	!LO:DY:a	!	!	!LO:DY:a	!	!	!LO:DY:a	!	!	!LO:DY:a	!	!	!	!	!	!	!	!
.	.	.	.	.	.	.	.	.	2r	.	4r	.	4G#X/	4E\	ff	4B-/	4B-\	ff	4dd\	4dd/	ff	4dd/	4dd\	ff	4d/	4d\	ff	4g#X/	4g#\	ff	.	.	.	.	.	.	.	.
!	!	!	!	!	!	!	!	!	!	!	!	!LO:DY:rj	!	!	!	!	!	!	!	!	!	!	!	!	!	!	!	!	!	!	!	!	!	!	!	!	!	!
.	.	.	.	.	.	.	.	.	.	.	4E^tt\	f	4r	4ryy	.	4r	4ryy	.	4ryy	4ryy	.	4r	4ryy	.	4r	4ryy	.	4r	4ryy	.	.	.	.	.	.	.	.	.
*	*	*	*	*	*	*	*	*	*	*	*	*	*	*	*	*	*	*	*v	*v	*	*	*	*	*	*	*	*	*	*	*	*	*	*	*	*	*	*
*	*	*	*	*	*	*	*	*	*	*	*	*	*v	*v	*	*	*	*	*	*	*v	*v	*	*v	*v	*	*v	*v	*	*	*	*	*	*	*	*	*
*	*	*	*	*	*	*	*	*	*	*	*	*	*	*	*v	*v	*	*	*	*	*	*	*	*	*	*	*	*	*	*	*	*	*
=6	=6	=6	=6	=6	=6	=6	=6	=6	=6	=6	=6	=6	=6	=6	=6	=6	=6	=6	=6	=6	=6	=6	=6	=6	=6	=6	=6	=6	=6	=6	=6	=6
1r	.	.	.	.	1r	.	.	1r	1cc\TT	f	1E\tt	.	1ryy	.	1ryy	.	1ryy	.	1ryy	.	1ryy	.	1ryy	.	1ryy	1ryy	1ryy	1ryy	1ryy	1ryy	1ryy	1ryy
!!LO:PB:g=original
=7	=7	=7	=7	=7	=7	=7	=7	=7	=7	=7	=7	=7	=7	=7	=7	=7	=7	=7	=7	=7	=7	=7	=7	=7	=7	=7	=7	=7	=7	=7	=7	=7
*^	*	*	*	*	*	*	*	*	*	*	*	*	*^	*	*	*	*	*	*^	*	*	*	*	*	*	*	*	*	*	*	*	*
2r	2ryy	.	.	.	.	4c/	Hej	.	1ryy	1ryy	.	1ryy	.	4F/	4FF\	.	1ryy	.	1ryy	.	4r	4ryy	.	4r	.	4r	.	1ryy	1ryy	1ryy	1ryy	1ryy	1ryy	1ryy	1ryy
.	.	.	.	.	.	8.a/	Or-	.	.	.	.	.	.	4r	4ryy	.	.	.	.	.	8.a/L	8.a\L	.	8.f\L	.	8.f\L	.	.	.	.	.	.	.	.	.
.	.	.	.	.	.	16f/	-le	.	.	.	.	.	.	.	.	.	.	.	.	.	16f/Jk	16f\Jk	.	16d\Jk	.	16d\Jk	.	.	.	.	.	.	.	.	.
4C/	4C\	Hej	Hej	.	.	4.cc\	bia-	.	.	.	.	.	.	4r	4ryy	.	.	.	.	.	[2cc/	2cc\	.	[<2c\	.	[<2c\	.	.	.	.	.	.	.	.	.
!	!	!LO:MO:mod=Or-	!LO:MO:mod=Or-	!	!	!	!	!	!	!	!	!	!	!	!	!	!	!	!	!	!	!	!	!	!	!	!	!	!	!	!	!	!	!	!
8.F/	8.D\	or-	or-	.	.	.	.	.	.	.	.	.	.	(8.F/L	(8.D\L	.	.	.	.	.	.	.	.	.	.	.	.	.	.	.	.	.	.	.	.
.	.	.	.	.	.	8c/	-ły	.	.	.	.	.	.	.	.	.	.	.	.	.	.	.	.	.	.	.	.	.	.	.	.	.	.	.	.
16G/	16E\	-le	-le	.	.	.	.	.	.	.	.	.	.	16G/Jk)	16E\Jk)	.	.	.	.	.	.	.	.	.	.	.	.	.	.	.	.	.	.	.	.
=8	=8	=8	=8	=8	=8	=8	=8	=8	=8	=8	=8	=8	=8	=8	=8	=8	=8	=8	=8	=8	=8	=8	=8	=8	=8	=8	=8	=8	=8	=8	=8	=8	=8	=8	=8
4A/	4F\	bia-	bia-	.	.	8cc\	pierz-	.	1ryy	1ryy	.	1ryy	.	4A/	4F\	.	1ryy	.	1ryy	.	8cc/]	8cc\	.	8c\]	.	8c\]	.	1ryy	1ryy	1ryy	1ryy	1ryy	1ryy	1ryy	1ryy
.	.	.	.	.	.	8a/	-chły	.	.	.	.	.	.	.	.	.	.	.	.	.	8r	8ryy	.	8r	.	8r	.	.	.	.	.	.	.	.	.
8F/	8D\	-ły	-ły	.	.	8f/	dzie-	.	.	.	.	.	.	4r	4ryy	.	.	.	.	.	8.a/L	8.a\L	.	8.f\L	.	8.f\L	.	.	.	.	.	.	.	.	.
!	!	!	!	!	!	!	!LO:MO:mod=-jów	!	!	!	!	!	!	!	!	!	!	!	!	!	!	!	!	!	!	!	!	!	!	!	!	!	!	!	!
8r	8ryy	.	.	.	.	8a/	-jóW	.	.	.	.	.	.	.	.	.	.	.	.	.	.	.	.	.	.	.	.	.	.	.	.	.	.	.	.
.	.	.	.	.	.	.	.	.	.	.	.	.	.	.	.	.	.	.	.	.	16f/Jk	16f\Jk	.	16d\Jk	.	16d\Jk	.	.	.	.	.	.	.	.	.
8C/	8C\	pierz-	pierz-	.	.	4.cc\	mro-	.	.	.	.	.	.	4r	4ryy	.	.	.	.	.	[2cc/	2cc\	.	[<2c\	.	[<2c\	.	.	.	.	.	.	.	.	.
8C/	8C\	-chły	-chły	.	.	.	.	.	.	.	.	.	.	.	.	.	.	.	.	.	.	.	.	.	.	.	.	.	.	.	.	.	.	.	.
8F/	8D\	mro-	mro-	.	.	.	.	.	.	.	.	.	.	8F/L	8D\L	.	.	.	.	.	.	.	.	.	.	.	.	.	.	.	.	.	.	.	.
8G/	8E\	-ki	-ki	.	.	8cc\	-ki	.	.	.	.	.	.	8G/J	8E\J	.	.	.	.	.	.	.	.	.	.	.	.	.	.	.	.	.	.	.	.
=9	=9	=9	=9	=9	=9	=9	=9	=9	=9	=9	=9	=9	=9	=9	=9	=9	=9	=9	=9	=9	=9	=9	=9	=9	=9	=9	=9	=9	=9	=9	=9	=9	=9	=9	=9
*	*	*	*	*	*	*	*	*	*	*	*	*	*	*	*	*	*^	*	*	*	*	*	*	*^	*	*^	*	*	*	*	*	*	*	*	*
!	!	!	!	!	!	!	!	!	!	!	!	!	!	!	!	!	!	!	!	!	!	!	!	!	!LO:SIC:s=8c]	!	!	!LO:SIC:s=8c]	!	!	!	!	!	!	!	!	!	!
4F/	4F\	leć	leć	.	.	4a/	leć	.	1ryy	1ryy	.	1ryy	.	4A/	4F\	.	4r	4ryy	.	1ryy	.	8cc/]	8cc\	.	8c\]	4ryy	.	8c\]	4ryy	.	1ryy	1ryy	1ryy	1ryy	1ryy	1ryy	1ryy	1ryy
.	.	.	.	.	.	.	.	.	.	.	.	.	.	.	.	.	.	.	.	.	.	8r	8r	.	8r	.	.	8r	.	.	.	.	.	.	.	.	.	.
8AA/	8AA\	dziś	dziś	.	.	8f/	dziś	.	.	.	.	.	.	8AA/L	8AA\L	.	8F/L	8F\L	.	.	.	8f/L	8c\L	.	8f/L	8A\L	.	8f/L	8A\L	.	.	.	.	.	.	.	.	.
8C/	8C\	wspa-	wspa-	.	.	8g/	wspa-	.	.	.	.	.	.	8C/J	8C\J	.	8G/J	8G\J	.	.	.	8g/J	8e\J	.	8g/J	8c\J	.	8g/J	8c\J	.	.	.	.	.	.	.	.	.
4.F/	4.F\	-nia-	-nia-	.	.	4.a/	-nia-	.	.	.	.	.	.	4.F/	4.F\	.	4.A/	4.A\	.	.	.	4.a/	4.f\	.	4.a/	4.f\	.	4.a/	4.f\	.	.	.	.	.	.	.	.	.
8G/	8G\	-ły	-ły	.	.	8b-/	-ły	.	.	.	.	.	.	8G/	8G\	.	8B-/	8B-\	.	.	.	8b/	8g\	.	8b-/	8g\	.	8b-/	8g\	.	.	.	.	.	.	.	.	.
=10	=10	=10	=10	=10	=10	=10	=10	=10	=10	=10	=10	=10	=10	=10	=10	=10	=10	=10	=10	=10	=10	=10	=10	=10	=10	=10	=10	=10	=10	=10	=10	=10	=10	=10	=10	=10	=10	=10
8A/	8A\	hen	hen	.	.	8cc\	hen	.	1ryy	1ryy	.	1ryy	.	8A/L	8A\L	.	8c/L	8A\L	.	1ryy	.	8cc/L	8a\L	.	8a/	8a\	.	8a/	8a\	.	1ryy	1ryy	1ryy	1ryy	1ryy	1ryy	1ryy	1ryy
!	!	!	!	!	!	!	!	!	!	!	!	!	!	!	!	!	!	!	!	!	!	!LO:SIC:v:s=8b-	!	!	!	!	!	!	!	!	!	!	!	!	!	!	!	!
8G/	8G\	na	na	.	.	8b-/	na	.	.	.	.	.	.	8G/	8G\	.	8B-/	8G\	.	.	.	8b/	8g\	.	8r	8ryy	.	8r	8ryy	.	.	.	.	.	.	.	.	.
8F/	8F\	lot	lot	.	.	8a/	lot	.	.	.	.	.	.	8F/	8F\	.	8A/	8F\	.	.	.	8a/	8f\	.	8f/	8f\	.	8f/	8f\	.	.	.	.	.	.	.	.	.
!	!	!	!	!	!	!	!	!	!	!	!	!	!	!	!	!	!	!	!	!	!	!LO:SIC:v:s=8b-J	!	!	!	!	!	!	!	!	!	!	!	!	!	!	!	!
8G/	8G\	wy-	wy-	.	.	8b-/	wy-	.	.	.	.	.	.	8G/J	8G\J	.	8B-/J	8G\J	.	.	.	8b/J	8g\J	.	8r	8ryy	.	8r	8ryy	.	.	.	.	.	.	.	.	.
!	!	!	!	!	!	!	!	!	!	!	!	!	!	!	!	!	!	!LO:SIC:s=4A\	!	!	!	!	!	!	!	!	!	!	!	!	!	!	!	!	!	!	!	!
4A/	4A\	-so-	-so-	.	.	4cc/	-so-	.	.	.	.	.	.	4A/	4A\	.	4c/	4A/	.	.	.	4cc/	4a\	.	4f/	4c\	.	4f/	4c\	.	.	.	.	.	.	.	.	.
8F/	8F\	-ki	-ki	.	.	8f/	-ki	.	.	.	.	.	.	8F/	8F\	.	8F/	8F\	.	.	.	4f/	4f\	.	4c/	4A\	.	4c/	4A\	.	.	.	.	.	.	.	.	.
8r	8ryy	.	.	.	.	8r	.	.	.	.	.	.	.	8r	8ryy	.	8r	8ryy	.	.	.	.	.	.	.	.	.	.	.	.	.	.	.	.	.	.	.	.
*v	*v	*	*	*	*	*	*	*	*	*	*	*	*	*	*	*	*v	*v	*	*	*	*	*	*	*	*	*	*	*	*	*	*	*	*	*	*	*	*
=11	=11	=11	=11	=11	=11	=11	=11	=11	=11	=11	=11	=11	=11	=11	=11	=11	=11	=11	=11	=11	=11	=11	=11	=11	=11	=11	=11	=11	=11	=11	=11	=11	=11	=11	=11	=11
8r	.	.	.	.	8r	.	.	1ryy	1ryy	.	1ryy	.	2BB-/	2BB-\	.	8F/	.	1ryy	.	4dd/	4dd\	.	8d/	8B-\	.	8f/	8B-\	.	1ryy	1ryy	1ryy	1ryy	1ryy	1ryy	1ryy	1ryy
8B-\	.	[Nad	.	.	8dd\	Nad	.	.	.	.	.	.	.	.	.	8r	.	.	.	.	.	.	8r	8ryy	.	8r	8ryy	.	.	.	.	.	.	.	.	.
!	!	!	!	!	!	!	!	!	!	!	!	!	!	!	!	!	!	!	!	!	!LO:MO:mod=*null:null	!	!	!	!	!	!	!	!	!	!	!	!	!	!	!
*	*	*	*	*	*	*	*	*	*	*	*	*	*	*	*	*	*	*	*	*	*Xtuplet	*	*	*	*	*	*	*	*	*	*	*	*	*	*	*
8G\	.	po-	.	.	8ee\	po-	.	.	.	.	.	.	.	.	.	8G/	.	.	.	12g/L	12g\L	.	8e/	8G\	.	8e/	8B-\	.	.	.	.	.	.	.	.	.
.	.	.	.	.	.	.	.	.	.	.	.	.	.	.	.	.	.	.	.	12g/	12g\	.	.	.	.	.	.	.	.	.	.	.	.	.	.	.
8B-\	.	-la	.	.	8dd\	-la	.	.	.	.	.	.	.	.	.	8r	.	.	.	.	.	.	8r	8ryy	.	8r	8ryy	.	.	.	.	.	.	.	.	.
.	.	.	.	.	.	.	.	.	.	.	.	.	.	.	.	.	.	.	.	12g/J	12g\J	.	.	.	.	.	.	.	.	.	.	.	.	.	.	.
4c\	.	chwa-	.	.	4cc\	chwa-	.	.	.	.	.	.	2AA/	2AA\	.	8A/L	.	.	.	2cc/	2cc\	.	8f/L	8A\L	.	8f/L	8c\L	.	.	.	.	.	.	.	.	.
.	.	.	.	.	.	.	.	.	.	.	.	.	.	.	.	8C/	.	.	.	.	.	.	8c/	8c\	.	8c/	8c\	.	.	.	.	.	.	.	.	.
8F\	.	-ły	.	.	8f/	-ły	.	.	.	.	.	.	.	.	.	8F/	.	.	.	.	.	.	8f/	8f\	.	8f/	8f\	.	.	.	.	.	.	.	.	.
8F\	.	nad	.	.	8f/	nad	.	.	.	.	.	.	.	.	.	8A/J	.	.	.	.	.	.	8a/J	8a\J	.	8a/J	8a\J	.	.	.	.	.	.	.	.	.
*	*	*	*	*	*	*	*	*	*	*	*	*	*	*	*	*	*	*	*	*	*	*	*v	*v	*	*	*	*	*	*	*	*	*	*	*	*
*	*	*	*	*	*	*	*	*	*	*	*	*	*	*	*	*	*	*	*	*	*	*	*	*	*v	*v	*	*	*	*	*	*	*	*	*
!!LO:PB:g=original
=12	=12	=12	=12	=12	=12	=12	=12	=12	=12	=12	=12	=12	=12	=12	=12	=12	=12	=12	=12	=12	=12	=12	=12	=12	=12	=12	=12	=12	=12	=12	=12	=12	=12	=12
*	*	*	*	*	*	*	*	*	*	*	*	*	*	*	*	*^	*	*	*	*	*	*	*	*	*	*	*	*	*	*	*	*	*	*
!	!	!	!	!	!	!	!	!	!	!	!	!	!	!	!	!	!	!	!	!	!	!	!	!	!	!LO:SIC:s=4f	!	!	!	!	!	!	!	!	!
4B-\	.	nie-	.	.	4dd\	nie-	.	1ryy	1ryy	.	1ryy	.	2BB-/	2BB-\	.	4d/	4F\	.	1ryy	.	4dd/	4dd\	.	4d/	.	4f/	.	1ryy	1ryy	1ryy	1ryy	1ryy	1ryy	1ryy	1ryy
*	*	*	*	*	*	*	*	*	*	*	*	*	*	*	*	*	*	*	*	*	*	*tuplet	*	*	*	*	*	*	*	*	*	*	*	*	*
!	!	!	!	!	!	!	!	!	!	!	!	!	!	!	!	!	!	!	!	!	!	!	!	!	!	!LO:SIC:s=4g	!	!	!	!	!	!	!	!	!
8G\	.	-bios	.	.	8ee\	-bios	.	.	.	.	.	.	.	.	.	4c/	4G\	.	.	.	12g/L	12g\L	.	4c/	.	4g/	.	.	.	.	.	.	.	.	.
.	.	.	.	.	.	.	.	.	.	.	.	.	.	.	.	.	.	.	.	.	12g/	12g\	.	.	.	.	.	.	.	.	.	.	.	.	.
8B-\	.	ob-	.	.	8dd\	ob-	.	.	.	.	.	.	.	.	.	.	.	.	.	.	.	.	.	.	.	.	.	.	.	.	.	.	.	.	.
.	.	.	.	.	.	.	.	.	.	.	.	.	.	.	.	.	.	.	.	.	12g/J	12g\J	.	.	.	.	.	.	.	.	.	.	.	.	.
!	!	!	!	!	!	!	!	!	!	!	!	!	!	!	!	!	!	!	!	!	!	!	!	!LO:SIC:s=4g	!	!LO:SIC:s=4g	!	!	!	!	!	!	!	!	!
4c\	.	-ło-	.	.	4cc\	-ło-	.	.	.	.	.	.	4AA/	4AA\	.	4c/	4A\	.	.	.	4cc/	4cc\	.	4g/	.	4g/	.	.	.	.	.	.	.	.	.
!	!	!	!	!	!	!	!	!	!	!	!	!	!	!	!	!	!	!	!	!	!	!	!	!LO:SIC:s=4f	!	!LO:SIC:s=4f	!	!	!	!	!	!	!	!	!
4A\	.	-ki	.	.	4cc\	-ki	.	.	.	.	.	.	4D/	4D\	.	4c/	4A\	.	.	.	4f/	4f\	.	4f/	.	4f/	.	.	.	.	.	.	.	.	.
=13	=13	=13	=13	=13	=13	=13	=13	=13	=13	=13	=13	=13	=13	=13	=13	=13	=13	=13	=13	=13	=13	=13	=13	=13	=13	=13	=13	=13	=13	=13	=13	=13	=13	=13	=13
4r	.	.	.	.	4r	.	.	1ryy	1ryy	.	1ryy	.	4G/	4GG\	.	4B-/	4B-\	.	1ryy	.	4b-X/	4b-\	.	4d/	.	4d/	.	1ryy	1ryy	1ryy	1ryy	1ryy	1ryy	1ryy	1ryy
!	!	!	!	!	!	!	!	!	!	!	!	!	!	!	!	!	!	!	!	!	!	!	!	!	!	!LO:SIC:s=4e-	!	!	!	!	!	!	!	!	!
8F#X\	.	To	.	.	8a/	To	.	.	.	.	.	.	4F#X/	4FF#X\	.	2c/	4A\	.	.	.	8.e-X/L	8.e-\L	.	4c/	.	4e-X/	.	.	.	.	.	.	.	.	.
8A\	.	nad	.	.	8cc\	nad	.	.	.	.	.	.	.	.	.	.	.	.	.	.	.	.	.	.	.	.	.	.	.	.	.	.	.	.	.
.	.	.	.	.	.	.	.	.	.	.	.	.	.	.	.	.	.	.	.	.	16e-/Jk	16e-\Jk	.	.	.	.	.	.	.	.	.	.	.	.	.
!	!	!	!	!	!	!	!	!	!	!	!	!	!	!	!	!	!	!	!	!	!	!	!	!	!	!LO:SIC:s=4e	!	!	!	!	!	!	!	!	!
4G\	.	świat	.	.	4b-\	świat	.	.	.	.	.	.	4G/	4GG\	.	.	4B-\	.	.	.	4b-/	4b-\	.	4B-/	.	4e/	.	.	.	.	.	.	.	.	.
!	!	!	!	!	!	!	!	!	!	!	!	!	!	!	!	!	!	!	!	!	!	!	!	!LO:SIC:s=4e-	!	!LO:SIC:s=4e-	!	!	!	!	!	!	!	!	!
8F#\	.	ca-	.	.	8a/	ca-	.	.	.	.	.	.	4F#/	4FF#\	.	4c/	4A\	.	.	.	4a/	4a\	.	4e-X/	.	4e-X/	.	.	.	.	.	.	.	.	.
8A\	.	-ły	.	.	8cc/	-ły	.	.	.	.	.	.	.	.	.	.	.	.	.	.	.	.	.	.	.	.	.	.	.	.	.	.	.	.	.
=14	=14	=14	=14	=14	=14	=14	=14	=14	=14	=14	=14	=14	=14	=14	=14	=14	=14	=14	=14	=14	=14	=14	=14	=14	=14	=14	=14	=14	=14	=14	=14	=14	=14	=14	=14
*	*	*	*	*	*	*	*	*	*	*	*	*	*	*	*	*	*	*	*	*	*	*	*	*^	*	*^	*	*	*	*	*	*	*	*	*
8G\	.	wiel-	.	.	8b-\	wiel-	.	1ryy	1ryy	.	1ryy	.	2G/	4GG\	.	2d/	2B-\	.	1ryy	.	4g/	4g\	.	2d/	2d\	.	4b-/	4b-\	.	1ryy	1ryy	1ryy	1ryy	1ryy	1ryy	1ryy	1ryy
8B-\	.	-ki	.	.	8dd\	-ki	.	.	.	.	.	.	.	.	.	.	.	.	.	.	.	.	.	.	.	.	.	.	.	.	.	.	.	.	.	.	.
!	!	!	!	!	!	!	!	!	!	!	!	!	!	!	!	!	!	!	!	!	!	!LO:MO:mod=*null:null	!	!	!	!	!	!	!	!	!	!	!	!	!	!	!
*	*	*	*	*	*	*	*	*	*	*	*	*	*	*	*	*	*	*	*	*	*	*Xtuplet	*	*	*	*	*	*	*	*	*	*	*	*	*	*	*
8G\	.	i	.	.	8b-\	i	.	.	.	.	.	.	.	4BB-\	.	.	.	.	.	.	12g/L	12g\L	.	.	.	.	4g/	4g\	.	.	.	.	.	.	.	.	.
.	.	.	.	.	.	.	.	.	.	.	.	.	.	.	.	.	.	.	.	.	12g/	12g\	.	.	.	.	.	.	.	.	.	.	.	.	.	.	.
8G\	.	sze-	.	.	8g/	sze-	.	.	.	.	.	.	.	.	.	.	.	.	.	.	.	.	.	.	.	.	.	.	.	.	.	.	.	.	.	.	.
.	.	.	.	.	.	.	.	.	.	.	.	.	.	.	.	.	.	.	.	.	12g/J	12g\J	.	.	.	.	.	.	.	.	.	.	.	.	.	.	.
[>2C/	.	-ro-	.	.	[>2cc\	-ro-	.	.	.	.	.	.	4F/	2C\	.	4d/	2B-\	.	.	.	4d/	4d\	.	4d/	2B-\	.	4d/	2B-\	.	.	.	.	.	.	.	.	.
.	.	.	.	.	.	.	.	.	.	.	.	.	4G/	.	.	4e/	.	.	.	.	4e/	4e\	.	4e/	.	.	4e/	.	.	.	.	.	.	.	.	.	.
=15	=15	=15	=15	=15	=15	=15	=15	=15	=15	=15	=15	=15	=15	=15	=15	=15	=15	=15	=15	=15	=15	=15	=15	=15	=15	=15	=15	=15	=15	=15	=15	=15	=15	=15	=15	=15	=15
!	!	!	!	!	!	!	!	!	!	!	!	!LO:DY:rj	!	!	!	!	!LO:MO:mod=4r	!	!	!	!	!	!	!	!	!	!	!	!	!	!	!	!	!	!	!	!
2C/_>	.	.	.	.	2cc\_>	.	.	1ryy	1ryy	.	4FF/	f	4F/	4FF\	.	4f/	2.ryy	.	1ryy	.	4f/	4ryy	.	4f/	4ryy	.	4f/	4ryy	.	1ryy	1ryy	1ryy	1ryy	1ryy	1ryy	1ryy	1ryy
!	!	!	!	!	!	!	!	!	!	!	!	!	!	!	!	!	!LO:MO:null:mod=4ryyyy	!	!	!	!	!	!	!	!	!	!	!	!	!	!	!	!	!	!	!	!
.	.	.	.	.	.	.	.	.	.	.	4r	.	4r	4ryy	.	4r	.	.	.	.	8.a/L	8.f\L	.	8.a/L	8.f\L	.	8.a/L	8.f\L	.	.	.	.	.	.	.	.	.
.	.	.	.	.	.	.	.	.	.	.	.	.	.	.	.	.	.	.	.	.	16f/Jk	16d\Jk	.	16f/Jk	16d\Jk	.	16f/Jk	16d\Jk	.	.	.	.	.	.	.	.	.
!	!	!	!	!	!	!	!	!	!	!	!	!	!	!	!	!	!LO:MO:null:mod=4ryyyy	!	!	!	!	!	!	!	!	!	!	!	!	!	!	!	!	!	!	!	!
4C/]	.	-ki	.	.	4cc\]	-ki	.	.	.	.	4r	.	4r	4ryy	.	4r	.	.	.	.	[2cc/	[2c\	.	[2cc/	[2c\	.	[2cc/	[2c\	.	.	.	.	.	.	.	.	.
4r	.	.	.	.	4r	.	.	.	.	.	4BBtt/	.	8.D/L	8.D\L	.	8.F/L	8.F\L	.	.	.	.	.	.	.	.	.	.	.	.	.	.	.	.	.	.	.	.
.	.	.	.	.	.	.	.	.	.	.	.	.	16E/Jk	16E\Jk	.	16G/Jk	16G\Jk	.	.	.	.	.	.	.	.	.	.	.	.	.	.	.	.	.	.	.	.
*	*	*	*	*	*	*	*	*	*	*	*	*	*v	*v	*	*	*	*	*	*	*	*	*	*	*	*	*	*	*	*	*	*	*	*	*	*	*
*	*	*	*	*	*	*	*	*	*	*	*	*	*	*	*v	*v	*	*	*	*	*	*	*	*	*	*	*	*	*	*	*	*	*	*	*	*
=16	=16	=16	=16	=16	=16	=16	=16	=16	=16	=16	=16	=16	=16	=16	=16	=16	=16	=16	=16	=16	=16	=16	=16	=16	=16	=16	=16	=16	=16	=16	=16	=16	=16	=16	=16
1ryy	.	.	.	.	1ryy	.	.	1ryy	1ryy	.	4FF/	.	4F/	.	4A/	.	1ryy	.	4cc/]	4c\]	.	4cc/]	4c\]	.	4cc/]	4c\]	.	1ryy	1ryy	1ryy	1ryy	1ryy	1ryy	1ryy	1ryy
.	.	.	.	.	.	.	.	.	.	.	4ryy	.	4ryy	.	4ryy	.	.	.	8.a/L	8.f\L	.	8.a/L	8.f\L	.	8.a/L	8.f\L	.	.	.	.	.	.	.	.	.
.	.	.	.	.	.	.	.	.	.	.	.	.	.	.	.	.	.	.	16f/Jk	16d\Jk	.	16f/Jk	16d\Jk	.	16f/Jk	16d\Jk	.	.	.	.	.	.	.	.	.
.	.	.	.	.	.	.	.	.	.	.	2ryy	.	2ryy	.	2ryy	.	.	.	2cc/	2c\	.	[2cc/	[2c\	.	[2cc/	[2c\	.	.	.	.	.	.	.	.	.
*	*	*	*	*	*	*	*	*	*	*	*	*	*	*	*	*	*	*	*v	*v	*	*	*	*	*	*	*	*	*	*	*	*	*	*	*
!!LO:PB:g=original
=17	=17	=17	=17	=17	=17	=17	=17	=17	=17	=17	=17	=17	=17	=17	=17	=17	=17	=17	=17	=17	=17	=17	=17	=17	=17	=17	=17	=17	=17	=17	=17	=17	=17	=17
*^	*	*	*	*	*^	*	*	*	*	*	*	*	*	*	*	*	*	*	*	*	*	*	*	*	*	*	*	*	*	*	*	*	*	*
4A-X/	4F\	.	Hej	.	.	4a-X/	4f\	Hej	.	1ryy	1ryy	.	1ryy	.	1ryy	.	1ryy	.	1ryy	.	1ryy	.	4cc/]	4c\]	.	4cc/]	4c\]	.	1ryy	1ryy	1ryy	1ryy	1ryy	1ryy	1ryy	1ryy
!	!	!	!	!	!	!	!	!	!	!	!	!	!	!	!	!	!	!	!	!	!	!	!	!	!	!	!	!LO:DY:a	!	!	!	!	!	!	!	!
8F/	8D\	.	or-	.	.	8f/	8d\	or-	.	.	.	.	.	.	.	.	.	.	.	.	.	.	8.cc/L	8.c\L	mp	8.cc/L	8.c\L	mp	.	.	.	.	.	.	.	.
8G/	8E\	.	-le	.	.	8g/	8e\	-le	.	.	.	.	.	.	.	.	.	.	.	.	.	.	.	.	.	.	.	.	.	.	.	.	.	.	.	.
.	.	.	.	.	.	.	.	.	.	.	.	.	.	.	.	.	.	.	.	.	.	.	16cc/Jk	16c\Jk	.	16cc/Jk	16c\Jk	.	.	.	.	.	.	.	.	.
4A-/	4F\	.	bia-	.	.	4a-/	4f\	bia-	.	.	.	.	.	.	.	.	.	.	.	.	.	.	[2cc/	[2c\	.	[2cc/	[2c\	.	.	.	.	.	.	.	.	.
8F/	8D\	.	-ły	.	.	8f/	8d\	-ły	.	.	.	.	.	.	.	.	.	.	.	.	.	.	.	.	.	.	.	.	.	.	.	.	.	.	.	.
8G/	8E\	.	.	.	.	8g/	8e\	.	.	.	.	.	.	.	.	.	.	.	.	.	.	.	.	.	.	.	.	.	.	.	.	.	.	.	.	.
=18	=18	=18	=18	=18	=18	=18	=18	=18	=18	=18	=18	=18	=18	=18	=18	=18	=18	=18	=18	=18	=18	=18	=18	=18	=18	=18	=18	=18	=18	=18	=18	=18	=18	=18	=18	=18
*	*	*	*	*	*	*	*	*	*	*	*	*	*	*	*^	*	*	*	*	*	*^	*	*	*	*	*	*	*	*	*	*	*	*	*	*	*
8A-X/	8F\	.	on-	.	.	8a-X/	8f\	on-	.	1ryy	1ryy	.	1ryy	.	2r	2ryy	.	1ryy	.	1ryy	.	4r	4ryy	.	4cc/_	4c\_	.	4cc/_	4c\_	.	1ryy	1ryy	1ryy	1ryy	1ryy	1ryy	1ryy	1ryy
8A-/	8F\	.	-gi	.	.	8a-/	8f\	-gi	.	.	.	.	.	.	.	.	.	.	.	.	.	.	.	.	.	.	.	.	.	.	.	.	.	.	.	.	.	.
!	!	!	!	!	!	!	!	!	!	!	!	!	!	!	!	!	!	!	!	!	!	!	!	!LO:DY:rj	!	!	!	!	!	!	!	!	!	!	!	!	!	!
8G/	8E\	.	tak	.	.	8g/	8e\	tak	.	.	.	.	.	.	.	.	.	.	.	.	.	8.cc/L	8.c\L	mp	8cc/]	8c\]	.	8cc/]	8c\]	.	.	.	.	.	.	.	.	.
8A-/	8F\	.	zra-	.	.	8a-/	8f\	zra-	.	.	.	.	.	.	.	.	.	.	.	.	.	.	.	.	8r	8ryy	.	8r	8ryy	.	.	.	.	.	.	.	.	.
.	.	.	.	.	.	.	.	.	.	.	.	.	.	.	.	.	.	.	.	.	.	16cc/Jk	16c\Jk	.	.	.	.	.	.	.	.	.	.	.	.	.	.	.
4B-/	4G\	.	-nio-	.	.	4b-/	4g\	-nio-	.	.	.	.	.	.	8.r	8.ryy	.	.	.	.	.	[2ee-X/	[2e-X\	.	2ryy	2ryy	.	2ryy	2ryy	.	.	.	.	.	.	.	.	.
!	!	!	!	!	!	!	!	!	!	!	!	!	!	!	!	!	!LO:DY:a	!	!	!	!	!	!	!	!	!	!	!	!	!	!	!	!	!	!	!	!	!
.	.	.	.	.	.	.	.	.	.	.	.	.	.	.	16E-X^/KL	16EE-X\KL	mp	.	.	.	.	.	.	.	.	.	.	.	.	.	.	.	.	.	.	.	.	.
8B-/	8G\	.	-ny	.	.	8b-/	8g\	-ny	.	.	.	.	.	.	8.G^/	8.GG\	.	.	.	.	.	.	.	.	.	.	.	.	.	.	.	.	.	.	.	.	.	.
8r	8ryy	.	.	.	.	8r	8ryy	.	.	.	.	.	.	.	.	.	.	.	.	.	.	.	.	.	.	.	.	.	.	.	.	.	.	.	.	.	.	.
.	.	.	.	.	.	.	.	.	.	.	.	.	.	.	16B-^/Jk	16BB-\Jk	.	.	.	.	.	.	.	.	.	.	.	.	.	.	.	.	.	.	.	.	.	.
*	*	*	*	*	*	*	*	*	*	*	*	*	*	*	*	*	*	*	*	*	*	*	*	*	*v	*v	*	*	*	*	*	*	*	*	*	*	*	*
*	*	*	*	*	*	*	*	*	*	*	*	*	*	*	*	*	*	*	*	*	*	*	*	*	*	*	*v	*v	*	*	*	*	*	*	*	*	*
=19	=19	=19	=19	=19	=19	=19	=19	=19	=19	=19	=19	=19	=19	=19	=19	=19	=19	=19	=19	=19	=19	=19	=19	=19	=19	=19	=19	=19	=19	=19	=19	=19	=19	=19	=19	=19
*	*	*	*	*	*	*	*	*	*	*	*	*	*	*	*	*	*	*	*	*^	*	*	*	*	*	*	*	*	*	*	*	*	*	*	*	*
4B-/	4G\	.	Zbyt	.	.	4b-/	4g\	Zbyt	.	1ryy	1ryy	.	1ryy	.	8e-X/	8E-X\	.	1ryy	.	4ryy	4r	.	4ee-/]	4e-\]	.	1ryy	.	1ryy	.	1ryy	1ryy	1ryy	1ryy	1ryy	1ryy	1ryy	1ryy
.	.	.	.	.	.	.	.	.	.	.	.	.	.	.	8ryy	8ryy	.	.	.	.	.	.	.	.	.	.	.	.	.	.	.	.	.	.	.	.	.
!	!	!	!	!	!	!	!	!	!	!	!	!	!	!	!	!	!	!	!	!	!	!LO:MO:null:mod=!LO&colon;DY&colon;ed=brack	!	!	!	!	!	!	!	!	!	!	!	!	!	!	!
!	!	!	!	!	!	!	!	!	!	!	!	!	!	!	!	!	!	!	!	!	!	!	!	!	!	!	!	!	!	!	!	!	!	!	!	!	!
!	!	!	!	!	!	!	!	!	!	!	!	!	!	!	!	!	!	!	!	!	!	!LO:MO:null:mod=mp	!	!	!	!	!	!	!	!	!	!	!	!	!	!	!
8G/	8E-X\	.	dłu-	.	.	8g/	8e-X\	dłu-	.	.	.	.	.	.	4ryy	4ryy	.	.	.	8.ee-X/L	8.e-X\L	.	8.ee-X/L	8.e-X\L	.	.	.	.	.	.	.	.	.	.	.	.	.
8A-X/	8F\	.	-go	.	.	8a-X/	8f\	-go	.	.	.	.	.	.	.	.	.	.	.	.	.	.	.	.	.	.	.	.	.	.	.	.	.	.	.	.	.
.	.	.	.	.	.	.	.	.	.	.	.	.	.	.	.	.	.	.	.	16ee-/Jk	16e-\Jk	.	16ee-/Jk	16e-\Jk	.	.	.	.	.	.	.	.	.	.	.	.	.
(4B-/	4G\	.	brzmia-	.	.	4b-/	(4g\	brzmia-	.	.	.	.	.	.	2ryy	2ryy	.	.	.	[2ee-/	[2e-\	.	[2ee-/	[2e-\	.	.	.	.	.	.	.	.	.	.	.	.	.
8G/)	8E-\	.	.	.	.	8g/	8e-\)	.	.	.	.	.	.	.	.	.	.	.	.	.	.	.	.	.	.	.	.	.	.	.	.	.	.	.	.	.	.
8A-/	8F\	.	-ły	.	.	8a-/	8f\	-ły	.	.	.	.	.	.	.	.	.	.	.	.	.	.	.	.	.	.	.	.	.	.	.	.	.	.	.	.	.
=20	=20	=20	=20	=20	=20	=20	=20	=20	=20	=20	=20	=20	=20	=20	=20	=20	=20	=20	=20	=20	=20	=20	=20	=20	=20	=20	=20	=20	=20	=20	=20	=20	=20	=20	=20	=20	=20
8B-/	8G\	.	po-	.	.	8b-/	8g\	po-	.	1ryy	1ryy	.	1ryy	.	2ryy	2ryy	.	2ryy	.	4ee-/]	4e-\]	.	4ee-/]	4e-\]	.	1ryy	.	1ryy	.	1ryy	1ryy	1ryy	1ryy	1ryy	1ryy	1ryy	1ryy
8B-/	8G\	.	-grze-	.	.	8b-/	8g\	-grze-	.	.	.	.	.	.	.	.	.	.	.	.	.	.	.	.	.	.	.	.	.	.	.	.	.	.	.	.	.
8A-X/	8F\	.	-bo-	.	.	8a-X/	8f\	-bo-	.	.	.	.	.	.	.	.	.	.	.	8.ee-X/L	8.e-X\L	.	8.ee-X/L	8.e-X\L	.	.	.	.	.	.	.	.	.	.	.	.	.
8B-/	8G\	.	-we	.	.	8b-/	8g\	-we	.	.	.	.	.	.	.	.	.	.	.	.	.	.	.	.	.	.	.	.	.	.	.	.	.	.	.	.	.
.	.	.	.	.	.	.	.	.	.	.	.	.	.	.	.	.	.	.	.	16ee-/Jk	16e-\Jk	.	16ee-/Jk	16e-\Jk	.	.	.	.	.	.	.	.	.	.	.	.	.
4c-X/	4A-\	.	dzwo-	.	.	4cc-X/	4a-\	dzwo-	.	.	.	.	.	.	8.r	8.ryy	.	8.r	.	[2ee-/	[2e-\	.	[2ee-/	[2e-\	.	.	.	.	.	.	.	.	.	.	.	.	.
!	!	!	!	!	!	!	!	!	!	!	!	!	!	!	!	!	!	!	!LO:MO:null:mod=!LO&colon;HP&colon;ed=brack	!	!	!	!	!	!	!	!	!	!	!	!	!	!	!	!	!	!
!	!	!	!	!	!	!	!	!	!	!	!	!	!	!	!	!	!	!	!	!	!	!	!	!	!	!	!	!	!	!	!	!	!	!	!	!	!
!	!	!	!	!	!	!	!	!	!	!	!	!	!	!	!	!	!	!	!LO:MO:null:mod=!LO&colon;DY&colon;ed=brack	!	!	!	!	!	!	!	!	!	!	!	!	!	!	!	!	!	!
!	!	!	!	!	!	!	!	!	!	!	!	!	!	!	!	!	!	!	!	!	!	!	!	!	!	!	!	!	!	!	!	!	!	!	!	!	!
!	!	!	!	!	!	!	!	!	!	!	!	!	!	!	!	!	!	!	!LO:MO:null:mod=mp <	!	!	!	!	!	!	!	!	!	!	!	!	!	!	!	!	!	!
.	.	.	.	.	.	.	.	.	.	.	.	.	.	.	16E-X/KL	16EE-X\KL	<	16E-X\KL	.	.	.	.	.	.	.	.	.	.	.	.	.	.	.	.	.	.	.
8c-/	8A-\	.	-ny	.	.	8cc-/	8a-\	-ny	.	.	.	.	.	.	8.A-X/	8.AA-X\	.	8.A-X\	.	.	.	.	.	.	.	.	.	.	.	.	.	.	.	.	.	.	.
8r	8ryy	.	.	.	.	8r	8ryy	.	.	.	.	.	.	.	.	.	.	.	.	.	.	.	.	.	.	.	.	.	.	.	.	.	.	.	.	.	.
!	!	!	!	!	!	!	!	!	!	!	!	!	!	!	!	!	!	!	!LO:MO:null:mod=[	!	!	!	!	!	!	!	!	!	!	!	!	!	!	!	!	!	!
.	.	.	.	.	.	.	.	.	.	.	.	.	.	.	16c-X/Jk	16C-X\Jk	[	16c-X\Jk	.	.	.	.	.	.	.	.	.	.	.	.	.	.	.	.	.	.	.
*v	*v	*	*	*	*	*	*	*	*	*	*	*	*	*	*	*	*	*	*	*	*	*	*	*	*	*	*	*	*	*	*	*	*	*	*	*	*
*	*	*	*	*	*v	*v	*	*	*	*	*	*	*	*	*	*	*	*	*	*	*	*	*	*	*	*	*	*	*	*	*	*	*	*	*	*
=21	=21	=21	=21	=21	=21	=21	=21	=21	=21	=21	=21	=21	=21	=21	=21	=21	=21	=21	=21	=21	=21	=21	=21	=21	=21	=21	=21	=21	=21	=21	=21	=21	=21	=21	=21
*	*	*	*	*	*	*	*	*	*	*	*	*	*	*	*	*	*	*	*	*	*	*	*	*^	*	*^	*	*	*	*	*	*	*	*	*
!	!	!	!	!	!	!	!	!	!	!	!	!	!	!	!	!	!LO:MO:null:mod=!LO&colon;DY&colon;ed=brack	!	!	!LO:MO:null:mod=!LO&colon;DY&colon;ed=brack	!	!	!LO:MO:null:mod=!LO&colon;DY&colon;ed=brack	!	!	!LO:MO:null:mod=!LO&colon;DY&colon;ed=brack	!	!	!	!	!	!	!	!	!	!	!
!	!	!	!	!	!	!	!	!	!	!	!	!	!	!	!	!	!	!	!	!	!	!	!	!	!	!	!	!	!	!	!	!	!	!	!	!	!
!	!	!	!	!	!	!	!	!	!	!	!	!	!	!	!	!	!LO:MO:null:mod=mf	!	!	!LO:MO:null:mod=mf	!	!	!LO:MO:null:mod=mf	!	!	!LO:MO:null:mod=mf	!	!	!LO:DY:a	!	!	!	!	!	!	!	!
4A-X\	.	Roz-	.	.	4cc-X/	Roz-	.	1ryy	1ryy	.	1ryy	.	2E-X/	1AA-X\	mf	4c-X\	.	8ee-/]	8e-\]	.	8ee-/]	8e-\]	.	2e-X/	4c-X\	.	2e-X/	4c-X\	mf	1ryy	1ryy	1ryy	1ryy	1ryy	1ryy	1ryy	1ryy
.	.	.	.	.	.	.	.	.	.	.	.	.	.	.	.	.	.	8ryy	8ryy	.	8ryy	8ryy	.	.	.	.	.	.	.	.	.	.	.	.	.	.	.
8B-X\	.	-pacz-	.	.	8dd-X/	-pacz-	.	.	.	.	.	.	.	.	.	4ryy	.	4ryy	4ryy	.	4ryy	4ryy	.	.	4r	.	.	4r	.	.	.	.	.	.	.	.	.
8A-\	.	-ne	.	.	8cc-/	-ne	.	.	.	.	.	.	.	.	.	.	.	.	.	.	.	.	.	.	.	.	.	.	.	.	.	.	.	.	.	.	.
4G\	.	sza-	.	.	4b-/	sza-	.	.	.	.	.	.	4F-X/	.	.	2B-\	.	2ryy	2ryy	.	2ryy	2ryy	.	4f-X/	2d-X\	.	4f-X/	2d-X\	.	.	.	.	.	.	.	.	.
4G\	.	-ły	.	.	4b-/	-ły	.	.	.	.	.	.	(4E-/	.	.	.	.	.	.	.	.	.	.	[4e-/	.	.	[4e-/	.	.	.	.	.	.	.	.	.	.
*	*	*	*	*	*	*	*	*	*	*	*	*	*	*	*	*	*	*v	*v	*	*	*	*	*	*	*	*	*	*	*	*	*	*	*	*	*	*
*	*	*	*	*	*	*	*	*	*	*	*	*	*	*	*	*	*	*	*	*v	*v	*	*	*	*	*	*	*	*	*	*	*	*	*	*	*
!!LO:PB:g=original
=22	=22	=22	=22	=22	=22	=22	=22	=22	=22	=22	=22	=22	=22	=22	=22	=22	=22	=22	=22	=22	=22	=22	=22	=22	=22	=22	=22	=22	=22	=22	=22	=22	=22	=22	=22
8A-X\	.	i	.	.	8cc-X\	i	.	1ryy	1ryy	.	1ryy	.	4E/)	1AA-X\	.	4c-X\	.	1ryy	.	1ryy	.	4e-/]	4c-X\	.	4e-/]	4c-X\	.	1ryy	1ryy	1ryy	1ryy	1ryy	1ryy	1ryy	1ryy
8A-\	.	ża-	.	.	8cc-\	ża-	.	.	.	.	.	.	.	.	.	.	.	.	.	.	.	.	.	.	.	.	.	.	.	.	.	.	.	.	.
8B-\	.	-ło-	.	.	8dd-X\	-ło-	.	.	.	.	.	.	4E-X/	.	.	4r	.	.	.	.	.	4e-X/	4r	.	4e-X/	4r	.	.	.	.	.	.	.	.	.
8A-\	.	-sne	.	.	8cc-\	-sne	.	.	.	.	.	.	.	.	.	.	.	.	.	.	.	.	.	.	.	.	.	.	.	.	.	.	.	.	.
4G\	.	to-	.	.	4b-\	to-	.	.	.	.	.	.	4F-X/	.	.	2B-\	.	.	.	.	.	(4f-X/	2d-X\	.	(4f-X/	2d-X\	.	.	.	.	.	.	.	.	.
8G\	.	-ny	.	.	8b-\	-ny	.	.	.	.	.	.	4E-/	.	.	.	.	.	.	.	.	4e-/)	.	.	4e-/)	.	.	.	.	.	.	.	.	.	.
8r	.	.	.	.	8r	.	.	.	.	.	.	.	.	.	.	.	.	.	.	.	.	.	.	.	.	.	.	.	.	.	.	.	.	.	.
*	*	*	*	*	*	*	*	*	*	*	*	*	*	*	*	*	*	*	*	*	*	*v	*v	*	*	*	*	*	*	*	*	*	*	*	*
=23	=23	=23	=23	=23	=23	=23	=23	=23	=23	=23	=23	=23	=23	=23	=23	=23	=23	=23	=23	=23	=23	=23	=23	=23	=23	=23	=23	=23	=23	=23	=23	=23	=23	=23
*	*	*	*	*	*	*	*	*	*	*	*	*	*	*	*	*	*	*	*	*^	*	*	*	*	*	*	*	*	*	*	*	*	*	*
!	!	!	!	!	!	!	!	!	!	!	!	!LO:DY:rj	!	!	!	!	!	!	!	!	!	!	!	!	!	!	!	!	!	!	!	!	!	!	!
4F\	.	Roz-	.	.	4a-X/	Roz-	.	1ryy	1ryy	.	1FF/TT	p	2C/	1FF\	.	2c\	.	1ryy	.	4a-X/	4f\	.	1ryy	.	2c/	2c\	.	1ryy	1ryy	1ryy	1ryy	1ryy	1ryy	1ryy	1ryy
8G\	.	-pacz-	.	.	8b-/	-pacz-	.	.	.	.	.	.	.	.	.	.	.	.	.	8b-X/L	8g\L	.	.	.	.	.	.	.	.	.	.	.	.	.	.
8F\	.	-ne	.	.	8a-/	-ne	.	.	.	.	.	.	.	.	.	.	.	.	.	8a-/J	8f\J	.	.	.	.	.	.	.	.	.	.	.	.	.	.
4E\	.	sza-	.	.	4g/	sza-	.	.	.	.	.	.	4D-X/	.	.	4d-X\	.	.	.	2g/	2e\	.	.	.	4d-X/	4d-\	.	.	.	.	.	.	.	.	.
4E\	.	-ły	.	.	4g/	-ły	.	.	.	.	.	.	[4C/	.	.	[4c\	.	.	.	.	.	.	.	.	[4c/	4c\	.	.	.	.	.	.	.	.	.
=24	=24	=24	=24	=24	=24	=24	=24	=24	=24	=24	=24	=24	=24	=24	=24	=24	=24	=24	=24	=24	=24	=24	=24	=24	=24	=24	=24	=24	=24	=24	=24	=24	=24	=24	=24
8F\	.	i	.	.	8a-X/	i	.	1ryy	1ryy	.	1FF/TT	.	2C/]	1FF\	.	4c\]	.	1ryy	.	4a-X/	4f\	.	1ryy	.	2c/]	2c\	.	1ryy	1ryy	1ryy	1ryy	1ryy	1ryy	1ryy	1ryy
8F\	.	ża-	.	.	8a-/	ża-	.	.	.	.	.	.	.	.	.	.	.	.	.	.	.	.	.	.	.	.	.	.	.	.	.	.	.	.	.
!	!	!	!	!	!	!	!	!	!	!	!	!	!	!	!	!LO:SIC:s=4C	!	!	!	!LO:SIC:v:s=8b-L	!	!	!	!	!	!	!	!	!	!	!	!	!	!	!
8G\	.	-łos-	.	.	8b-/	-łos-	.	.	.	.	.	.	.	.	.	4C\	.	.	.	8b/L	8g\L	.	.	.	.	.	.	.	.	.	.	.	.	.	.
8F\	.	-ne	.	.	8a-/	-ne	.	.	.	.	.	.	.	.	.	.	.	.	.	8a-/J	8f\J	.	.	.	.	.	.	.	.	.	.	.	.	.	.
!	!	!	!	!	!	!	!	!	!	!	!	!	!	!	!	!LO:SIC:s=4D-	!	!	!	!	!	!	!	!	!	!	!	!	!	!	!	!	!	!	!
4E\	.	to-	.	.	4g/	to-	.	.	.	.	.	.	4D-X/	.	.	4D-X\	.	.	.	2g/	2e\	.	.	.	4d-X/	4d-\	.	.	.	.	.	.	.	.	.
!	!	!	!	!	!	!	!	!	!	!	!	!	!	!	!	!LO:SIC:s=[4C	!	!	!	!	!	!	!	!	!	!	!	!	!	!	!	!	!	!	!
8E\	.	-ny	.	.	8g/	-ny	.	.	.	.	.	.	[4C/	.	.	[<4C\	.	.	.	.	.	.	.	.	[4c/	4c\	.	.	.	.	.	.	.	.	.
8r	.	.	.	.	8r	.	.	.	.	.	.	.	.	.	.	.	.	.	.	.	.	.	.	.	.	.	.	.	.	.	.	.	.	.	.
*	*	*	*	*	*	*	*	*	*	*	*	*	*	*	*	*	*	*	*	*	*	*	*	*	*v	*v	*	*	*	*	*	*	*	*	*
=25	=25	=25	=25	=25	=25	=25	=25	=25	=25	=25	=25	=25	=25	=25	=25	=25	=25	=25	=25	=25	=25	=25	=25	=25	=25	=25	=25	=25	=25	=25	=25	=25	=25	=25
!	!	!	!	!	!	!	!	!	!	!	!	!	!	!	!	!LO:SIC:s=4C]	!	!	!	!	!	!	!	!	!	!	!	!	!	!	!	!	!	!
4F\	.	Wiedź	.	.	4a-X/	Wiedź	.	1ryy	1ryy	.	4FF/	.	4C/]	4FF\	.	4C\]	.	1ryy	.	4a-X/	4f\	.	1ryy	.	4c/]	.	1ryy	1ryy	1ryy	1ryy	1ryy	1ryy	1ryy	1ryy
!	!	!	!	!	!	!	!	!	!	!	!	!	!	!	!	!LO:SIC:s=8DL	!	!	!	!	!	!	!	!	!	!	!	!	!	!	!	!	!	!
8D\	.	nas	.	.	8f/	nas	.	.	.	.	4ryy	.	8D/L	4ryy	.	8D\L	.	.	.	8f/L	8f\L	.	.	.	4c/	.	.	.	.	.	.	.	.	.
!	!	!	!	!	!	!	!	!	!	!	!	!	!	!	!	!LO:SIC:s=8EJ	!	!	!	!	!	!	!	!	!	!	!	!	!	!	!	!	!	!
8E\	.	na	.	.	8g/	na	.	.	.	.	.	.	8E/J	.	.	8E\J	.	.	.	8g/J	8c\J	.	.	.	.	.	.	.	.	.	.	.	.	.
!	!	!	!	!	!	!	!	!	!	!	!	!	!	!	!	!	!	!	!	!	!	!	!	!	!	!LO:MO:null:mod=!LO&colon;HP&colon;ed=brack	!	!	!	!	!	!	!	!
!	!	!	!	!	!	!	!	!	!	!	!	!	!	!	!	!	!	!	!	!	!	!	!	!	!	!	!	!	!	!	!	!	!	!
!	!	!	!	!	!	!	!	!	!	!	!	!	!	!	!	!LO:SIC:s=4F	!	!	!	!	!	!	!	!	!	!LO:MO:null:mod=<	!	!	!	!	!	!	!	!
4.F\	.	śmia-	.	.	4.a-/	śmia-	.	.	.	.	2ryy	.	4F/	2ryy	.	4F\	.	.	.	8a-/L	8f\L	<	.	.	8c/L	.	.	.	.	.	.	.	.	.
.	.	.	.	.	.	.	.	.	.	.	.	.	.	.	.	.	.	.	.	8f/	8f\	.	.	.	8f/	.	.	.	.	.	.	.	.	.
!	!	!	!	!	!	!	!	!	!	!	!	!	!	!	!	!LO:SIC:s=4E-	!	!	!	!	!	!	!	!	!	!	!	!	!	!	!	!	!	!
.	.	.	.	.	.	.	.	.	.	.	.	.	4E-X/	.	.	4E-X\	.	.	.	8a-/	8a-\	.	.	.	8.f/	.	.	.	.	.	.	.	.	.
8F\	.	-ły	.	.	8a-/	-ły	.	.	.	.	.	.	.	.	.	.	.	.	.	16cc/L	8f\J	.	.	.	.	.	.	.	.	.	.	.	.	.
!	!	!	!	!	!	!	!	!	!	!	!	!	!	!	!	!	!	!	!	!	!	!	!	!	!	!LO:MO:null:mod=[	!	!	!	!	!	!	!	!
.	.	.	.	.	.	.	.	.	.	.	.	.	.	.	.	.	.	.	.	16b/JJ	.	[	.	.	16f/Jk	.	.	.	.	.	.	.	.	.
=26	=26	=26	=26	=26	=26	=26	=26	=26	=26	=26	=26	=26	=26	=26	=26	=26	=26	=26	=26	=26	=26	=26	=26	=26	=26	=26	=26	=26	=26	=26	=26	=26	=26	=26
*	*	*	*	*	*	*	*	*	*	*	*	*	*	*	*	*^	*	*	*	*	*	*	*^	*	*^	*	*	*	*	*	*	*	*	*
!	!	!	!	!	!	!	!	!	!	!	!	!	!	!	!	!	!	!	!LO:SIC:s=2.b-	!	!	!	!	!	!	!	!	!	!	!	!	!	!	!	!	!	!
2F\	.	czyn	.	.	2b-/	czyn	.	1ryy	1ryy	.	1ryy	.	4D-X/	4ryy	.	2ryy	4D-X\	.	2.b-X/	.	2.b-X/	[2f\	.	[2f/	2.B-\	.	[2f/	2.B-\	.	1ryy	1ryy	1ryy	1ryy	1ryy	1ryy	1ryy	1ryy
.	.	.	.	.	.	.	.	.	.	.	.	.	8.D-/L	8.DD-X\L	.	.	4r	.	.	.	.	.	.	.	.	.	.	.	.	.	.	.	.	.	.	.	.
.	.	.	.	.	.	.	.	.	.	.	.	.	16D-/Jk	16DD-\Jk	.	.	.	.	.	.	.	.	.	.	.	.	.	.	.	.	.	.	.	.	.	.	.
8r	.	.	.	.	8r	.	.	.	.	.	.	.	4D-/	4DD-\	.	8ryy	8r	.	.	.	.	8f\L]	.	8f/L]	.	.	8f/L]	.	.	.	.	.	.	.	.	.	.
8G\	.	nie-	.	.	8b-/	nie-	.	.	.	.	.	.	.	.	.	8B-/L	8B-\L	.	.	.	.	24f\L	.	24f/L	.	.	24f/L	.	.	.	.	.	.	.	.	.	.
.	.	.	.	.	.	.	.	.	.	.	.	.	.	.	.	.	.	.	.	.	.	24f\	.	24f/	.	.	24f/	.	.	.	.	.	.	.	.	.	.
.	.	.	.	.	.	.	.	.	.	.	.	.	.	.	.	.	.	.	.	.	.	24f\JJ	.	24f/JJ	.	.	24f/JJ	.	.	.	.	.	.	.	.	.	.
8F\	.	-u-	.	.	8a-X/	-u-	.	.	.	.	.	.	4D-/	4DD-\	.	8A-X/	8A-\	.	8a-X/L	.	8a-X/L	8f\L	.	8f/L	8A-X\L	.	8f/L	8A-X\L	.	.	.	.	.	.	.	.	.
8G\	.	-stra-	.	.	8b-/	-stra-	.	.	.	.	.	.	.	.	.	8B-/J	8B-\J	.	8b-/J	.	8b-/J	8f\J	.	8f/J	8B-\J	.	8f/J	8B-\J	.	.	.	.	.	.	.	.	.
!!LO:PB:g=original
=27	=27	=27	=27	=27	=27	=27	=27	=27	=27	=27	=27	=27	=27	=27	=27	=27	=27	=27	=27	=27	=27	=27	=27	=27	=27	=27	=27	=27	=27	=27	=27	=27	=27	=27	=27	=27	=27
!	!	!	!	!	!	!	!	!	!	!	!	!	!	!	!	!	!	!	!LO:SIC:s=2cc	!	!	!	!	!	!	!	!	!	!	!	!	!	!	!	!	!	!
[>1C/	.	-szo-	.	.	[1cc\	-szo-	.	1ryy	1ryy	.	1C/TT	.	2C/	2C\	.	2c/	2c\	.	2cc/	.	2cc/	2e\	.	2e/	2c\	.	2e/	2c\	.	1ryy	1ryy	1ryy	1ryy	1ryy	1ryy	1ryy	1ryy
.	.	.	.	.	.	.	.	.	.	.	.	.	2BB-/	2BB-\	.	2B-/	2B-\	.	2ryy	.	8r	8ryy	.	2ryy	2ryy	.	2ryy	2ryy	.	.	.	.	.	.	.	.	.
.	.	.	.	.	.	.	.	.	.	.	.	.	.	.	.	.	.	.	.	.	8c/L	8c\L	.	.	.	.	.	.	.	.	.	.	.	.	.	.	.
.	.	.	.	.	.	.	.	.	.	.	.	.	.	.	.	.	.	.	.	.	8e/	8e\	.	.	.	.	.	.	.	.	.	.	.	.	.	.	.
.	.	.	.	.	.	.	.	.	.	.	.	.	.	.	.	.	.	.	.	.	8g/J	8g\J	.	.	.	.	.	.	.	.	.	.	.	.	.	.	.
=28	=28	=28	=28	=28	=28	=28	=28	=28	=28	=28	=28	=28	=28	=28	=28	=28	=28	=28	=28	=28	=28	=28	=28	=28	=28	=28	=28	=28	=28	=28	=28	=28	=28	=28	=28	=28	=28
!	!	!	!	!	!	!	!	!	!	!	!LO:SIC:s=1CTTT	!	!	!	!	!	!	!	!	!	!	!	!	!	!	!	!	!	!	!	!	!	!	!	!	!	!
4C/]	.	.	.	.	4cc\]	.	.	1ryy	1ryy	.	1C/TT	.	2AA/	2AA\	.	2A/	2A\	.	1ryy	.	[2cc/	2cc\	.	8r	8ryy	.	8r	8ryy	.	1ryy	1ryy	1ryy	1ryy	1ryy	1ryy	1ryy	1ryy
!	!	!	!	!	!	!	!	!	!	!	!	!	!	!	!	!	!	!	!	!	!	!	!	!	!	!LO:MO:null:mod=!LO&colon;HP&colon;ed=brack	!	!	!	!	!	!	!	!	!	!	!
!	!	!	!	!	!	!	!	!	!	!	!	!	!	!	!	!	!	!	!	!	!	!	!	!	!	!	!	!	!LO:MO:mod=!null:null	!	!	!	!	!	!	!	!
!	!	!	!	!	!	!	!	!	!	!	!	!	!	!	!	!	!	!	!	!	!	!	!	!	!	!LO:MO:null:mod=<	!	!	!LO:HP:a	!	!	!	!	!	!	!	!
.	.	.	.	.	.	.	.	.	.	.	.	.	.	.	.	.	.	.	.	.	.	.	.	8c/L	8c\L	.	8c/L	8c\L	<	.	.	.	.	.	.	.	.
4C/	.	-ny..	.	.	4cc\	-ny..	.	.	.	.	.	.	.	.	.	.	.	.	.	.	.	.	.	8f/	8f\	.	8f/	8f\	.	.	.	.	.	.	.	.	.
!	!	!	!	!	!	!	!	!	!	!	!	!	!	!	!	!	!	!	!	!	!	!	!	!	!	!LO:MO:null:mod=[	!	!	!	!	!	!	!	!	!	!	!
.	.	.	.	.	.	.	.	.	.	.	.	.	.	.	.	.	.	.	.	.	.	.	.	8a/J	8a\J	.	8a/J	8a\J	.	.	.	.	.	.	.	.	.
2ryy	.	.	.	.	2ryy	.	.	.	.	.	.	.	4GG/	4GG\	.	8G/L	2ryy	.	.	.	8cc/L]	8cc\L	.	4cc/	4e\	.	4cc/	4e\	[	.	.	.	.	.	.	.	.
!	!	!	!	!	!	!	!	!	!	!	!	!	!	!	!	!	!	!LO:DY:a	!	!	!	!	!	!	!	!	!	!	!	!	!	!	!	!	!	!	!
.	.	.	.	.	.	.	.	.	.	.	.	.	.	.	.	8C/	.	<	.	.	8c/	8c\	<	.	.	.	.	.	.	.	.	.	.	.	.	.	.
.	.	.	.	.	.	.	.	.	.	.	.	.	4r	4ryy	.	8E/	.	.	.	.	8e/	8e\	.	4c/	4c\	.	4c/	4c\	.	.	.	.	.	.	.	.	.
.	.	.	.	.	.	.	.	.	.	.	.	.	.	.	.	8G/J	.	.	.	.	8g/J	8g\J	.	.	.	.	.	.	.	.	.	.	.	.	.	.	.
=29	=29	=29	=29	=29	=29	=29	=29	=29	=29	=29	=29	=29	=29	=29	=29	=29	=29	=29	=29	=29	=29	=29	=29	=29	=29	=29	=29	=29	=29	=29	=29	=29	=29	=29	=29	=29	=29
!	!	!	!	!	!	!	!	!	!	!	!	!	!	!	!LO:MO:null:mod=!LO&colon;DY&colon;ed=brack	!	!	!	!	!	!	!	!LO:MO:null:mod=!LO&colon;DY&colon;ed=brack	!	!	!LO:MO:null:mod=!LO&colon;DY&colon;ed=brack	!	!	!	!	!	!	!	!	!	!	!
!	!	!	!	!	!	!	!	!	!	!	!	!	!	!	!	!	!	!	!	!	!	!	!	!	!	!	!	!	!	!	!	!	!	!	!	!	!
!	!	!	!	!LO:DY:ed=brack	!	!	!LO:DY:a	!	!	!	!	!	!	!	!LO:MO:null:mod=ff	!	!	!LO:DY:a	!	!	!	!	!LO:MO:mod=[ ff	!	!	!LO:MO:null:mod=ff	!	!	!LO:DY:a	!	!	!	!	!	!	!	!
8c\	.	Hej	.	f	8cc\	Hej	f	1ryy	1ryy	.	1ryy	.	2F/	2FF\	.	[4c/	4c\	[ ff	1ryy	.	4cc/	4cc\	[	2a/	2A\	.	2a/	2A\	ff	1ryy	1ryy	1ryy	1ryy	1ryy	1ryy	1ryy	1ryy
16r	.	.	.	.	16r	.	.	.	.	.	.	.	.	.	.	.	.	.	.	.	.	.	.	.	.	.	.	.	.	.	.	.	.	.	.	.	.
16A\	.	na	.	.	16a/	na	.	.	.	.	.	.	.	.	.	.	.	.	.	.	.	.	.	.	.	.	.	.	.	.	.	.	.	.	.	.	.
[4c\	.	bój!	.	.	[4cc\	bój!	.	.	.	.	.	.	.	.	.	8c/L]	8c\L	.	.	.	4c/	4c\	.	.	.	.	.	.	.	.	.	.	.	.	.	.	.
.	.	.	.	.	.	.	.	.	.	.	.	.	.	.	.	16c/L	16c\L	.	.	.	.	.	.	.	.	.	.	.	.	.	.	.	.	.	.	.	.
.	.	.	.	.	.	.	.	.	.	.	.	.	.	.	.	16c/JJ	16c\JJ	.	.	.	.	.	.	.	.	.	.	.	.	.	.	.	.	.	.	.	.
8c\]	.	.	.	.	8cc\]	.	.	.	.	.	.	.	2E/	2EE\	.	[4c/	4c\	.	.	.	2r	2ryy	.	2g/	2G\	.	2g/	2G\	.	.	.	.	.	.	.	.	.
16r	.	.	.	.	16r	.	.	.	.	.	.	.	.	.	.	.	.	.	.	.	.	.	.	.	.	.	.	.	.	.	.	.	.	.	.	.	.
16G\	.	na	.	.	16g/	na	.	.	.	.	.	.	.	.	.	.	.	.	.	.	.	.	.	.	.	.	.	.	.	.	.	.	.	.	.	.	.
4c\	.	bój!	.	.	4cc\	bój!	.	.	.	.	.	.	.	.	.	8c/L]	8c\L	.	.	.	.	.	.	.	.	.	.	.	.	.	.	.	.	.	.	.	.
.	.	.	.	.	.	.	.	.	.	.	.	.	.	.	.	16c/L	16c\L	.	.	.	.	.	.	.	.	.	.	.	.	.	.	.	.	.	.	.	.
.	.	.	.	.	.	.	.	.	.	.	.	.	.	.	.	16c/JJ	16c\JJ	.	.	.	.	.	.	.	.	.	.	.	.	.	.	.	.	.	.	.	.
*	*	*	*	*	*	*	*	*	*	*	*	*	*	*	*	*	*	*	*	*	*v	*v	*	*	*	*	*	*	*	*	*	*	*	*	*	*	*
=30	=30	=30	=30	=30	=30	=30	=30	=30	=30	=30	=30	=30	=30	=30	=30	=30	=30	=30	=30	=30	=30	=30	=30	=30	=30	=30	=30	=30	=30	=30	=30	=30	=30	=30	=30	=30
8c\	.	Gdzie	.	.	8cc\	Gdzie	.	1ryy	1ryy	.	1ryy	.	2D/	2DD\	.	[2c/	2c\	.	1ryy	.	1ryy	.	2f/	2F\	.	2f/	2F\	.	1ryy	1ryy	1ryy	1ryy	1ryy	1ryy	1ryy	1ryy
8A\	.	wol-	.	.	8a/	wol-	.	.	.	.	.	.	.	.	.	.	.	.	.	.	.	.	.	.	.	.	.	.	.	.	.	.	.	.	.	.
8F\	.	-noś-	.	.	8f/	-noś-	.	.	.	.	.	.	.	.	.	.	.	.	.	.	.	.	.	.	.	.	.	.	.	.	.	.	.	.	.	.
8A\	.	-ci	.	.	8a/	-ci	.	.	.	.	.	.	.	.	.	.	.	.	.	.	.	.	.	.	.	.	.	.	.	.	.	.	.	.	.	.
4c\	.	zo-	.	.	4cc\	zo-	.	.	.	.	.	.	4C/	4CC\	.	8c/L]	8c\L	.	.	.	.	.	8e/	8G\	.	8e/	8G\	.	.	.	.	.	.	.	.	.
.	.	.	.	.	.	.	.	.	.	.	.	.	.	.	.	16c/L	16c\L	.	.	.	.	.	8r	8ryy	.	8r	8ryy	.	.	.	.	.	.	.	.	.
.	.	.	.	.	.	.	.	.	.	.	.	.	.	.	.	16c/J	16c\J	.	.	.	.	.	.	.	.	.	.	.	.	.	.	.	.	.	.	.
8c\	.	-rza	.	.	8cc\	-rza	.	.	.	.	.	.	4ryy	4ryy	.	8c/	8c\	.	.	.	.	.	4r	4ryy	.	4r	4ryy	.	.	.	.	.	.	.	.	.
8ryy	.	.	.	.	8ryy	.	.	.	.	.	.	.	.	.	.	8c/J	8c\J	.	.	.	.	.	.	.	.	.	.	.	.	.	.	.	.	.	.	.
=31	=31	=31	=31	=31	=31	=31	=31	=31	=31	=31	=31	=31	=31	=31	=31	=31	=31	=31	=31	=31	=31	=31	=31	=31	=31	=31	=31	=31	=31	=31	=31	=31	=31	=31	=31	=31
*^	*	*	*	*	*	*	*	*	*	*	*	*	*	*	*	*	*	*	*	*	*^	*	*	*	*	*	*	*	*	*	*	*	*	*	*	*
!	!	!	!	!	!	!	!	!	!	!	!	!	!	!	!	!	!	!	!	!	!LO:MO:null:mod=!LO&colon;DY&colon;ed=brack	!	!	!	!	!	!	!	!	!	!	!	!	!	!	!	!	!
!	!	!	!	!	!	!	!	!	!	!	!LO:DY:rj	!	!	!	!	!	!	!	!	!	!	!	!	!	!LO:TX:a:t=col I e II:mod=	!	!	!	!	!	!	!	!	!	!	!	!	!
!	!	!	!	!	!	!	!	!	!	!	!	!	!	!	!	!	!	!	!	!	!LO:MO:null:mod=ff	!	!	!	!LO:MO:mod=[4e-	!LO:MO:mod=[4E-	!	!	!	!	!	!	!	!	!	!	!	!
8c/	8A-X\	.	Hej	.	.	8ee-X\	Hej	.	1ryy	1cc\TT	ff	1ryy	.	2E-X/	2AA-X\	.	2c/	2A-X\	.	[>4e-X/	.	2cc/	2cc\	.	[yy4e-X/yy	[yy4E-X\yy	.	[4e-X/	[4E-X\	.	1ryy	1ryy	1ryy	1ryy	1ryy	1ryy	1ryy	1ryy
16r	16ryy	.	.	.	.	16r	.	.	.	.	.	.	.	.	.	.	.	.	.	.	.	.	.	.	.	.	.	.	.	.	.	.	.	.	.	.	.	.
16c/	16A-\	.	na	.	.	16cc\	na	.	.	.	.	.	.	.	.	.	.	.	.	.	.	.	.	.	.	.	.	.	.	.	.	.	.	.	.	.	.	.
[4e-X/	[4E-X\	.	bój!	.	.	[4ee-\	bój!	.	.	.	.	.	.	.	.	.	.	.	.	8e-/L]	.	.	.	.	8e-/L]yy	8E-\L]yy	.	8e-/L]	8E-\L]	.	.	.	.	.	.	.	.	.
.	.	.	.	.	.	.	.	.	.	.	.	.	.	.	.	.	.	.	.	16e-/L	.	.	.	.	16e-/Lyy	16E-\Lyy	.	16e-/L	16E-\L	.	.	.	.	.	.	.	.	.
.	.	.	.	.	.	.	.	.	.	.	.	.	.	.	.	.	.	.	.	16e-/JJ	.	.	.	.	16e-/JJyy	16E-\JJyy	.	16e-/JJ	16E-\JJ	.	.	.	.	.	.	.	.	.
8e-/]	8E-\]	.	.	.	.	8ee-\]	.	.	.	.	.	.	.	2E-/	2GG\	.	2B-X/	2G\	.	[>4e-/	.	2b-X/	2b-\	.	[yy4e-/yy	[yy4E-\yy	.	[4e-/	[4E-\	.	.	.	.	.	.	.	.	.
16r	16ryy	.	.	.	.	16r	.	.	.	.	.	.	.	.	.	.	.	.	.	.	.	.	.	.	.	.	.	.	.	.	.	.	.	.	.	.	.	.
16B-/	16B-\	.	na	.	.	16b-\	na	.	.	.	.	.	.	.	.	.	.	.	.	.	.	.	.	.	.	.	.	.	.	.	.	.	.	.	.	.	.	.
8e-/	8E-\	.	bój	.	.	8ee-\	bój	.	.	.	.	.	.	.	.	.	.	.	.	8e-/L]	.	.	.	.	8e-/L]yy	8E-\L]yy	.	8e-/L]	8E-\L]	.	.	.	.	.	.	.	.	.
8B-/	8B-\	.	za	.	.	8b-\	za	.	.	.	.	.	.	.	.	.	.	.	.	16e-/L	.	.	.	.	16e-/Lyy	16E-\Lyy	.	16e-/L	16E-\L	.	.	.	.	.	.	.	.	.
.	.	.	.	.	.	.	.	.	.	.	.	.	.	.	.	.	.	.	.	16e-/JJ	.	.	.	.	16e-/JJyy	16E-\JJyy	.	16e-/JJ	16E-\JJ	.	.	.	.	.	.	.	.	.
=32	=32	=32	=32	=32	=32	=32	=32	=32	=32	=32	=32	=32	=32	=32	=32	=32	=32	=32	=32	=32	=32	=32	=32	=32	=32	=32	=32	=32	=32	=32	=32	=32	=32	=32	=32	=32	=32	=32
!	!	!	!	!	!	!	!	!	!	!LO:SIC:s=1ccTTT	!	!	!	!	!	!	!	!	!	!	!	!	!	!	!	!	!	!	!	!	!	!	!	!	!	!	!	!
(8e-X/L	4E-X\	.	pol-	.	.	(8ee-X\L	pol-	.	1ryy	1cc\TT	.	1ryy	.	2BB-/	2FF\	.	2A-X/	2F\	.	[>2e-X/	.	2a-X/	2a-\	.	[yy2e-X/yy	[yy2E-X\yy	.	[2e-X/	[2E-X\	.	1ryy	1ryy	1ryy	1ryy	1ryy	1ryy	1ryy	1ryy
8c/J)	.	.	.	.	.	8cc\J)	.	.	.	.	.	.	.	.	.	.	.	.	.	.	.	.	.	.	.	.	.	.	.	.	.	.	.	.	.	.	.	.
8A-X/	8A-\	.	-ski	.	.	8a-X/	-ski	.	.	.	.	.	.	.	.	.	.	.	.	.	.	.	.	.	.	.	.	.	.	.	.	.	.	.	.	.	.	.
8A-/	8A-\	.	brzeg	.	.	8cc/	brzeg	.	.	.	.	.	.	.	.	.	.	.	.	.	.	.	.	.	.	.	.	.	.	.	.	.	.	.	.	.	.	.
4.G/	4.E-\	.	mo-	.	.	4.ee-\	mo-	.	.	.	.	.	.	8BB-/	8EE-X\	.	8G/	8E-X\	.	8e-/L]	.	8g/	2ryy	.	8e-/L]yy	8E-\L]yy	.	8e-/L]	8E-\L]	.	.	.	.	.	.	.	.	.
.	.	.	.	.	.	.	.	.	.	.	.	.	.	8r	8ryy	.	8r	8ryy	.	16e-/L	.	8r	.	.	16e-/Lyy	16E-\Lyy	.	16e-/L	16E-\L	.	.	.	.	.	.	.	.	.
.	.	.	.	.	.	.	.	.	.	.	.	.	.	.	.	.	.	.	.	16e-/JJ	.	.	.	.	16e-/JJyy	16E-\JJyy	.	16e-/JJ	16E-\JJ	.	.	.	.	.	.	.	.	.
.	.	.	.	.	.	.	.	.	.	.	.	.	.	4r	4ryy	.	4r	4ryy	.	8e-/L	.	4r	.	.	8e-/Lyy	8E-\Lyy	.	8e-/L	8E-\L	.	.	.	.	.	.	.	.	.
8G/	8D-X\	.	-rza	.	.	8ee-\	-rza	.	.	.	.	.	.	.	.	.	.	.	.	8e-/J	.	.	.	.	8e-/Jyy	8E-\Jyy	.	8e-/J	8E-\J	.	.	.	.	.	.	.	.	.
*	*	*	*	*	*	*	*	*	*	*	*	*	*	*	*	*	*v	*v	*	*	*	*	*	*	*	*	*	*	*	*	*	*	*	*	*	*	*	*
!!LO:PB:g=original
=33	=33	=33	=33	=33	=33	=33	=33	=33	=33	=33	=33	=33	=33	=33	=33	=33	=33	=33	=33	=33	=33	=33	=33	=33	=33	=33	=33	=33	=33	=33	=33	=33	=33	=33	=33	=33	=33
!	!	!	!	!	!	!	!	!	!	!	!	!	!	!	!	!	!	!	!	!	!	!	!	!	!	!LO:MO:null:mod=!LO&colon;DY&colon;ed=brack	!	!	!	!	!	!	!	!	!	!	!
!	!	!	!	!	!	!	!	!	!	!	!	!	!	!	!	!	!	!	!	!	!	!	!	!	!	!	!	!	!	!	!	!	!	!	!	!	!
!	!	!	!	!	!	!	!	!	!	!	!LO:DY:rj:a	!	!	!	!	!LO:DY:a	!	!	!	!	!	!	!	!	!	!LO:MO:null:mod=mf	!	!	!LO:DY:a	!	!	!	!	!	!	!	!
4G/	4C\	.	Za	.	.	4een\	Za	.	1ryy	8cc\	mf	1ryy	.	4C/	4C\	mf	1ryy	.	1ryy	.	4en/	4en\	mf	4en/	2G\	.	4en/	2G\	mf	1ryy	1ryy	1ryy	1ryy	1ryy	1ryy	1ryy	1ryy
.	.	.	.	.	.	.	.	.	.	8r	.	.	.	.	.	.	.	.	.	.	.	.	.	.	.	.	.	.	.	.	.	.	.	.	.	.	.
8B-/	8G\	.	Pol-	.	.	8dd\	Pol-	.	.	4ccTT\	.	.	.	4BB-/	4BB-\	.	.	.	.	.	4e/	4e\	.	8d/L	.	.	8d/L	.	.	.	.	.	.	.	.	.	.
8B-/	8G\	.	-skę	.	.	8cc\	-skę	.	.	.	.	.	.	.	.	.	.	.	.	.	.	.	.	8c/J	.	.	8c/J	.	.	.	.	.	.	.	.	.	.
4.A/	4.F\	.	wol-	.	.	4.ff\	wol-	.	.	8cc\	.	.	.	2AA/	2AA\	.	.	.	.	.	4.f/	4.f\	.	2c/	2F\	.	2c/	2F\	.	.	.	.	.	.	.	.	.
.	.	.	.	.	.	.	.	.	.	8r	.	.	.	.	.	.	.	.	.	.	.	.	.	.	.	.	.	.	.	.	.	.	.	.	.	.	.
.	.	.	.	.	.	.	.	.	.	4ccTT\	.	.	.	.	.	.	.	.	.	.	.	.	.	.	.	.	.	.	.	.	.	.	.	.	.	.	.
8A/	8F\	.	-ną	.	.	8ee\	-ną	.	.	.	.	.	.	.	.	.	.	.	.	.	8f/	8e\	.	.	.	.	.	.	.	.	.	.	.	.	.	.	.
=34	=34	=34	=34	=34	=34	=34	=34	=34	=34	=34	=34	=34	=34	=34	=34	=34	=34	=34	=34	=34	=34	=34	=34	=34	=34	=34	=34	=34	=34	=34	=34	=34	=34	=34	=34	=34	=34
8B-/	8F\	.	od	.	.	8dd\	od	.	1ryy	8cc\	.	1ryy	.	4BB-/	4BB-\	.	1ryy	.	1ryy	.	8d/L	8d\L	.	2d/	2F\	.	2d/	2B-\	.	1ryy	1ryy	1ryy	1ryy	1ryy	1ryy	1ryy	1ryy
8B-/	8E\	.	ty-	.	.	8ee\	ty-	.	.	8r	.	.	.	.	.	.	.	.	.	.	8e/J	8e\J	.	.	.	.	.	.	.	.	.	.	.	.	.	.	.
8B-/	8D\	.	-rań-	.	.	8ff\	-rań-	.	.	8cc\	.	.	.	8D/L	8D\L	.	.	.	.	.	8.f/L	8.f\L	.	.	.	.	.	.	.	.	.	.	.	.	.	.	.
8B-/	8E\	.	-skich	.	.	8dd\	-skich	.	.	8r	.	.	.	8BB-/J	8BB-\J	.	.	.	.	.	.	.	.	.	.	.	.	.	.	.	.	.	.	.	.	.	.
.	.	.	.	.	.	.	.	.	.	.	.	.	.	.	.	.	.	.	.	.	16f/Jk	16f\Jk	.	.	.	.	.	.	.	.	.	.	.	.	.	.	.
4A/	4F\	.	tro-	.	.	4ff\	tro-	.	.	2ccTT\	.	.	.	4AA/	4AA\	.	.	.	.	.	8f/L	8f\L	.	2c/	2F\	.	2c/	2c\	.	.	.	.	.	.	.	.	.
.	.	.	.	.	.	.	.	.	.	.	.	.	.	.	.	.	.	.	.	.	8g/	8g\	.	.	.	.	.	.	.	.	.	.	.	.	.	.	.
8A/	8F\	.	-nów	.	.	8cc\	-nów	.	.	.	.	.	.	4F/	4FF\	.	.	.	.	.	8a/	8a\	.	.	.	.	.	.	.	.	.	.	.	.	.	.	.
8r	8ryy	.	.	.	.	8r	.	.	.	.	.	.	.	.	.	.	.	.	.	.	8f/J	8f\J	.	.	.	.	.	.	.	.	.	.	.	.	.	.	.
=35	=35	=35	=35	=35	=35	=35	=35	=35	=35	=35	=35	=35	=35	=35	=35	=35	=35	=35	=35	=35	=35	=35	=35	=35	=35	=35	=35	=35	=35	=35	=35	=35	=35	=35	=35	=35	=35
4A/	4F#X\	.	Za	.	.	4cc\	Za	.	1ryy	8cc\	.	1ryy	.	4F#X/	4FF#X\	.	1ryy	.	1ryy	.	4cc/	4cc\	.	4a/	4c\	.	4a/	4e-X\	.	1ryy	1ryy	1ryy	1ryy	1ryy	1ryy	1ryy	1ryy
.	.	.	.	.	.	.	.	.	.	8r	.	.	.	.	.	.	.	.	.	.	.	.	.	.	.	.	.	.	.	.	.	.	.	.	.	.	.
8G/	8G\	.	Pol-	.	.	8b-\	Pol-	.	.	4ccTT\	.	.	.	8G/L	8GG\L	.	.	.	.	.	8b-X/L	8b-\L	.	4g/	4B-\	.	4g/	4d\	.	.	.	.	.	.	.	.	.
8A/	8A\	.	-skę	.	.	8cc\	-skę	.	.	.	.	.	.	8A/J	8AA\J	.	.	.	.	.	8cc/J	8cc\J	.	.	.	.	.	.	.	.	.	.	.	.	.	.	.
4.B-/	4.B-\	.	daw-	.	.	4.dd\	daw-	.	.	8cc\	.	.	.	4.B-/	4.BB-\	.	.	.	.	.	4dd/	4dd\	.	4a/	4B-\	.	4g/	4d\	.	.	.	.	.	.	.	.	.
.	.	.	.	.	.	.	.	.	.	8r	.	.	.	.	.	.	.	.	.	.	.	.	.	.	.	.	.	.	.	.	.	.	.	.	.	.	.
.	.	.	.	.	.	.	.	.	.	4ccTT\	.	.	.	.	.	.	.	.	.	.	4cc/	4cc\	.	4f#X/	4c\	.	4f#X/	4c\	.	.	.	.	.	.	.	.	.
8A/	8A\	.	-ną	.	.	8cc\	-ną	.	.	.	.	.	.	8A/	8AA\	.	.	.	.	.	.	.	.	.	.	.	.	.	.	.	.	.	.	.	.	.	.
*v	*v	*	*	*	*	*	*	*	*	*	*	*	*	*	*	*	*	*	*	*	*	*	*	*	*	*	*	*	*	*	*	*	*	*	*	*	*
=36	=36	=36	=36	=36	=36	=36	=36	=36	=36	=36	=36	=36	=36	=36	=36	=36	=36	=36	=36	=36	=36	=36	=36	=36	=36	=36	=36	=36	=36	=36	=36	=36	=36	=36	=36	=36
!	!	!	!	!	!	!	!	!	!	!	!	!	!	!	!	!	!	!	!	!LO:SIC:v:s=4b-	!LO:SIC:v:s=4b-	!	!	!	!	!	!	!	!	!	!	!	!	!	!	!
8G\	.	Pia-	.	.	8b-\	Pia-	.	1ryy	8cc\	.	1ryy	.	2G/	4GG\	.	1ryy	.	1ryy	.	4b/	4b\	.	4g/	2B-\	.	4g/	2d\	.	1ryy	1ryy	1ryy	1ryy	1ryy	1ryy	1ryy	1ryy
8B-\	.	-stów,	.	.	8dd\	-stów,	.	.	8r	.	.	.	.	.	.	.	.	.	.	.	.	.	.	.	.	.	.	.	.	.	.	.	.	.	.	.
8G\	.	Ja-	.	.	8b-\	Ja-	.	.	8cc\	.	.	.	.	4BB-\	.	.	.	.	.	4g/	4g\	.	4c/	.	.	4d/	.	.	.	.	.	.	.	.	.	.
8G\	.	-giel-	.	.	8g/	-giel-	.	.	8r	.	.	.	.	.	.	.	.	.	.	.	.	.	.	.	.	.	.	.	.	.	.	.	.	.	.	.
!	!	!	!	!	!	!	!	!	!	!LO:MO:null:mod=!LO&colon;HP&colon;ed=brack	!	!	!	!	!	!	!	!	!	!	!	!LO:MO:null:mod=!LO&colon;HP&colon;ed=brack	!	!	!LO:MO:null:mod=!LO&colon;HP&colon;ed=brack	!	!	!	!	!	!	!	!	!	!	!
!	!	!	!	!	!	!	!	!	!	!	!	!	!	!	!	!	!	!	!	!	!	!	!	!	!	!	!	!LO:MO:mod=!null:null	!	!	!	!	!	!	!	!
!	!	!	!	!	!	!	!	!	!	!LO:MO:null:mod=<	!	!	!	!	!	!	!	!	!	!	!	!LO:MO:null:mod=<	!	!	!LO:MO:null:mod=<	!	!	!LO:HP:a	!	!	!	!	!	!	!	!
4c\	.	-lo-	.	.	4cc\	-lo-	.	.	2ccTT\	.	.	.	(4F/	2C\	<	.	.	.	.	(4d/	4d\	.	4B-/	2B-\	.	4d/	2B-\	<	.	.	.	.	.	.	.	.
!	!	!	!	!	!	!	!	!	!	!LO:MO:null:mod=[[	!	!	!	!	!	!	!	!	!	!	!	!LO:MO:null:mod=[[	!	!	!LO:MO:null:mod=[[	!	!	!LO:MO:null:mod=[[	!	!	!	!	!	!	!	!
4C/	.	-nów	.	.	4cc\	-nów	.	.	.	.	.	.	4G/)	.	[[	.	.	.	.	4e/)	4e\	.	4c/	.	.	4c/	.	.	.	.	.	.	.	.	.	.
*	*	*	*	*	*	*	*	*	*	*	*	*	*	*	*	*	*	*	*	*v	*v	*	*	*	*	*	*	*	*	*	*	*	*	*	*	*
=37	=37	=37	=37	=37	=37	=37	=37	=37	=37	=37	=37	=37	=37	=37	=37	=37	=37	=37	=37	=37	=37	=37	=37	=37	=37	=37	=37	=37	=37	=37	=37	=37	=37	=37	=37
*	*	*	*	*	*	*	*	*	*	*	*	*	*	*	*	*^	*	*^	*	*	*	*	*	*	*	*	*	*	*	*	*	*	*	*	*
!	!	!	!	!	!	!	!	!	!	!	!	!	!	!	!	!	!	!LO:MO:null:mod=!LO&colon;DY&colon;ed=brack	!	!	!LO:MO:null:mod=!LO&colon;DY&colon;ed=brack	!	!LO:MO:null:mod=!LO&colon;DY&colon;ed=brack	!	!	!LO:MO:null:mod=!LO&colon;DY&colon;ed=brack	!	!	!LO:MO:mod=!null:null	!	!	!	!	!	!	!	!
!	!	!	!	!	!	!	!	!	!	!	!	!	!	!	!LO:DY:rj	!	!	!	!	!	!	!	!	!	!	!	!	!	!LO:DY:rj:a	!	!	!	!	!	!	!	!
!	!	!	!	!	!	!	!	!	!	!	!	!	!	!	!	!	!	!LO:MO:null:mod=f	!	!	!LO:MO:null:mod=f	!	!LO:MO:null:mod=f	!	!	!LO:MO:null:mod=f	!	!	!LO:MO:null:mod=f	!	!	!	!	!	!	!	!
8c\	.	Hej	.	.	8cc\	Hej	.	1ryy	1ryy	.	1ryy	.	2F/	2FF\	f	[4c/	2A\	.	[4cc/	4cc\	.	2a/	.	[4c/	[4c\	.	2a/	2A\	[ f	1ryy	1ryy	1ryy	1ryy	1ryy	1ryy	1ryy	1ryy
!	!	!	!	!	!	!	!	!	!	!	!	!	!	!	!LO:MO:null:mod=!LO&colon;HP&colon;t=[cresc.]	!	!	!LO:MO:null:mod=!LO&colon;HP&colon;t=[cresc.]	!	!	!LO:MO:null:mod=!LO&colon;HP&colon;t=[cresc.]	!	!LO:MO:null:mod=!LO&colon;HP&colon;t=[cresc.]	!	!	!LO:MO:null:mod=!LO&colon;HP&colon;t=[cresc.]	!	!	!	!	!	!	!	!	!	!	!
!	!	!	!	!	!	!	!	!	!	!	!	!	!	!	!	!	!	!	!	!	!	!	!	!	!	!	!	!	!LO:MO:mod=!null:null	!	!	!	!	!	!	!	!
!	!	!	!	!	!	!	!	!	!	!	!	!	!	!	!LO:MO:null:mod=<	!	!	!LO:MO:null:mod=<	!	!	!LO:MO:null:mod=<	!	!LO:MO:null:mod=<	!	!	!LO:MO:null:mod=<	!	!	!LO:HP:a	!	!	!	!	!	!	!	!
16r	.	.	.	.	16r	.	.	.	.	.	.	.	.	.	.	.	.	.	.	.	.	.	.	.	.	.	.	.	<	.	.	.	.	.	.	.	.
16A\	.	na	.	.	16a/	na	.	.	.	.	.	.	.	.	.	.	.	.	.	.	.	.	.	.	.	.	.	.	.	.	.	.	.	.	.	.	.
[4c\	.	bój!	.	.	[4cc\	bój!	.	.	.	.	.	.	.	.	.	8c/L]	.	.	8cc/L]	8cc\L	.	.	.	8c/L]	8c\L]	.	.	.	.	.	.	.	.	.	.	.	.
.	.	.	.	.	.	.	.	.	.	.	.	.	.	.	.	16c/L	.	.	16cc/L	16cc\L	.	.	.	16c/L	16c\L	.	.	.	.	.	.	.	.	.	.	.	.
.	.	.	.	.	.	.	.	.	.	.	.	.	.	.	.	16c/JJ	.	.	16cc/JJ	16cc\JJ	.	.	.	16c/JJ	16c\JJ	.	.	.	.	.	.	.	.	.	.	.	.
8c\]	.	.	.	.	8cc\]	.	.	.	.	.	.	.	2E/	2EE\	.	[4c/	2G\	.	[4cc/	[4cc\	.	2g/	.	[4c/	[4c\	.	2g/	2G\	.	.	.	.	.	.	.	.	.
16r	.	.	.	.	16r	.	.	.	.	.	.	.	.	.	.	.	.	.	.	.	.	.	.	.	.	.	.	.	.	.	.	.	.	.	.	.	.
16G\	.	na	.	.	16g/	na	.	.	.	.	.	.	.	.	.	.	.	.	.	.	.	.	.	.	.	.	.	.	.	.	.	.	.	.	.	.	.
4c\	.	bój!	.	.	4cc\	bój!	.	.	.	.	.	.	.	.	.	8c/L]	.	.	8cc/L]	8cc\L]	.	.	.	8c/L]	8c\L]	.	.	.	.	.	.	.	.	.	.	.	.
.	.	.	.	.	.	.	.	.	.	.	.	.	.	.	.	16c/L	.	.	16cc/L	16cc\L	.	.	.	16c/L	16c\L	.	.	.	.	.	.	.	.	.	.	.	.
.	.	.	.	.	.	.	.	.	.	.	.	.	.	.	.	16c/JJ	.	.	16cc/JJ	16cc\JJ	.	.	.	16c/JJ	16c\JJ	.	.	.	.	.	.	.	.	.	.	.	.
!!LO:PB:g=original
=38	=38	=38	=38	=38	=38	=38	=38	=38	=38	=38	=38	=38	=38	=38	=38	=38	=38	=38	=38	=38	=38	=38	=38	=38	=38	=38	=38	=38	=38	=38	=38	=38	=38	=38	=38	=38	=38
8c\	.	ta-	.	.	8cc\	ta-	.	1ryy	1ryy	.	1ryy	.	2D/	2DD\	.	[2c/	2F\	.	[2cc/	[2cc\	.	2f/	.	[2c/	[2c\	.	2f/	2F\	.	1ryy	1ryy	1ryy	1ryy	1ryy	1ryy	1ryy	1ryy
8A\	.	-ka	.	.	8a/	-ka	.	.	.	.	.	.	.	.	.	.	.	.	.	.	.	.	.	.	.	.	.	.	.	.	.	.	.	.	.	.	.
8F\	.	wo-	.	.	8f/	wo-	.	.	.	.	.	.	.	.	.	.	.	.	.	.	.	.	.	.	.	.	.	.	.	.	.	.	.	.	.	.	.
8A\	.	-la	.	.	8a/	-la	.	.	.	.	.	.	.	.	.	.	.	.	.	.	.	.	.	.	.	.	.	.	.	.	.	.	.	.	.	.	.
4c\	.	Bo-	.	.	4cc\	Bo-	.	.	.	.	.	.	8C/	8CC\	.	8c/L]	8E\	.	8cc/L]	8cc\L]	.	8e/	.	8c/L]	8c\L]	.	8e/	8G\	.	.	.	.	.	.	.	.	.
.	.	.	.	.	.	.	.	.	.	.	.	.	8r	8ryy	.	16c/L	8r	.	16cc/L	16cc\L	.	8r	.	16c/L	16c\L	.	8r	8ryy	.	.	.	.	.	.	.	.	.
.	.	.	.	.	.	.	.	.	.	.	.	.	.	.	.	16c/J	.	.	16cc/J	16cc\J	.	.	.	16c/JJ	16c\J	.	.	.	.	.	.	.	.	.	.	.	.
4c\	.	-ża	.	.	4cc\	-ża	.	.	.	.	.	.	4r	4ryy	.	8c/	4r	.	8cc/	8cc\	.	4r	.	8c/L	8c\	.	4r	4ryy	.	.	.	.	.	.	.	.	.
.	.	.	.	.	.	.	.	.	.	.	.	.	.	.	.	8c/J	.	.	8cc/J	8cc\J	.	.	.	8c/J	8c\J	.	.	.	.	.	.	.	.	.	.	.	.
=39	=39	=39	=39	=39	=39	=39	=39	=39	=39	=39	=39	=39	=39	=39	=39	=39	=39	=39	=39	=39	=39	=39	=39	=39	=39	=39	=39	=39	=39	=39	=39	=39	=39	=39	=39	=39	=39
*^	*	*	*	*	*	*	*	*	*	*	*	*	*	*	*	*	*	*	*	*	*	*^	*	*	*	*	*	*	*	*	*	*	*	*	*	*	*
!	!	!	!	!	!	!	!	!	!	!	!	!	!	!	!	!	!	!	!LO:MO:null:mod=!LO&colon;DY&colon;ed=brack	!	!	!LO:MO:null:mod=!LO&colon;DY&colon;ed=brack	!	!	!	!	!	!LO:MO:null:mod=!LO&colon;DY&colon;ed=brack	!	!	!	!	!	!	!	!	!	!	!
!	!	!	!	!	!	!	!	!	!	!	!	!	!	!	!	!	!	!	!	!	!	!	!	!	!LO:MO:mod=!null:null	!	!	!	!	!	!	!	!	!	!	!	!	!	!
!	!	!	!	!	!	!	!	!	!	!	!LO:DY:rj	!	!	!	!	!LO:DY:rj	!	!	!LO:MO:null:mod=ff	!	!	!LO:MO:null:mod=ff	!	!	!LO:DY:rj:a	!LO:SIC:s=2cc	!	!LO:MO:null:mod=ff	!	!	!LO:DY:a	!	!	!	!	!	!	!	!
8e-X\	4ryy	.	Hej	.	.	8ee-X\	Hej	.	1ryy	1cc\TT	ff	1ryy	.	2E-X/	2AA-X\	ff	2c/	2A-X\	.	[4ee-X/	[4e-X\	.	[4ee-X/	[4e-X\	ff	2cc/ 2A-X/	2A-\	.	2cc/	2c\	ff	1ryy	1ryy	1ryy	1ryy	1ryy	1ryy	1ryy	1ryy
16r	.	.	.	.	.	16r	.	.	.	.	.	.	.	.	.	.	.	.	.	.	.	.	.	.	.	.	.	.	.	.	.	.	.	.	.	.	.	.	.
16c\	.	.	na	.	.	16cc\	na	.	.	.	.	.	.	.	.	.	.	.	.	.	.	.	.	.	.	.	.	.	.	.	.	.	.	.	.	.	.	.	.
[4e-/	[4E-X\	.	bój!	.	.	[4ee-\	bój!	.	.	.	.	.	.	.	.	.	.	.	.	8ee-/L]	8e-\L]	.	8ee-/L]	8e-\L]	.	.	.	.	.	.	.	.	.	.	.	.	.	.	.
.	.	.	.	.	.	.	.	.	.	.	.	.	.	.	.	.	.	.	.	16ee-/L	16e-\L	.	16ee-/L	16e-\L	.	.	.	.	.	.	.	.	.	.	.	.	.	.	.
.	.	.	.	.	.	.	.	.	.	.	.	.	.	.	.	.	.	.	.	16ee-/JJ	16e-\JJ	.	16ee-/JJ	16e-\JJ	.	.	.	.	.	.	.	.	.	.	.	.	.	.	.
!	!	!	!	!	!	!	!	!	!	!	!	!	!	!	!	!	!	!	!	!	!	!	!	!	!	!LO:SIC:s=2b-	!	!	!	!	!	!	!	!	!	!	!	!	!
8e-/]	8E-\]	.	.	.	.	8ee-\]	.	.	.	.	.	.	.	2E-/	2GG\	.	2B-/	2G\	.	[4ee-/	[4e-\	.	[4ee-/	[4e-\	.	2b-/ 2G/	2G\	.	2b-/	2B-\	.	.	.	.	.	.	.	.	.
8B-/	8B-\	.	na	.	.	8b-\	na	.	.	.	.	.	.	.	.	.	.	.	.	.	.	.	.	.	.	.	.	.	.	.	.	.	.	.	.	.	.	.	.
8e-/	8E-\	.	bój	.	.	8ee-\	bój	.	.	.	.	.	.	.	.	.	.	.	.	8ee-/L]	8e-\L]	.	8ee-/L]	8e-\L]	.	.	.	.	.	.	.	.	.	.	.	.	.	.	.
8B-/	8B-\	.	za	.	.	8b-\	za	.	.	.	.	.	.	.	.	.	.	.	.	16ee-/L	16e-\L	.	16ee-/L	16e-\L	.	.	.	.	.	.	.	.	.	.	.	.	.	.	.
.	.	.	.	.	.	.	.	.	.	.	.	.	.	.	.	.	.	.	.	16ee-/JJ	16e-\JJ	.	16ee-/JJ	16e-\JJ	.	.	.	.	.	.	.	.	.	.	.	.	.	.	.
=40	=40	=40	=40	=40	=40	=40	=40	=40	=40	=40	=40	=40	=40	=40	=40	=40	=40	=40	=40	=40	=40	=40	=40	=40	=40	=40	=40	=40	=40	=40	=40	=40	=40	=40	=40	=40	=40	=40	=40
!	!	!	!	!	!	!	!	!	!	!	!	!	!	!	!	!	!	!	!	!	!	!	!	!	!	!LO:SIC:s=2a-	!	!	!	!	!	!	!	!	!	!	!	!	!
4e-X/	4E-X\	.	Gdańsk	.	.	4ee-X\	Gdańsk	.	1ryy	1cc\TT	.	1ryy	.	2BB-/	2FF\	.	2A-X/	2F\	.	2ee-X/	2e-X\	.	[2ee-X/	[2e-X\	.	2a-X/ 2F/	2F\	.	2a-X/	2A-X\	.	1ryy	1ryy	1ryy	1ryy	1ryy	1ryy	1ryy	1ryy
8A-X/	8A-\	.	i	.	.	8a-X/	i	.	.	.	.	.	.	.	.	.	.	.	.	.	.	.	.	.	.	.	.	.	.	.	.	.	.	.	.	.	.	.	.
8A-/	8A-\	.	brzeg	.	.	8cc\	brzeg	.	.	.	.	.	.	.	.	.	.	.	.	.	.	.	.	.	.	.	.	.	.	.	.	.	.	.	.	.	.	.	.
!	!	!	!	!	!	!	!	!	!	!	!	!	!	!	!	!	!	!	!	!	!	!	!	!	!	!LO:SIC:s=8g	!	!	!	!	!	!	!	!	!	!	!	!	!
4.G/	4.E-X\	.	mo-	.	.	4.ee-\	mo-	.	.	.	.	.	.	8BB-/	8EE-X\	.	8G/	8E-X\	.	8ee-/L	8e-\L	.	8ee-/L]	8e-\L]	.	8g/ 8E-X/	8E-\	.	8g/	8G\	.	.	.	.	.	.	.	.	.
.	.	.	.	.	.	.	.	.	.	.	.	.	.	8r	8ryy	.	8r	8ryy	.	16ee-/L	16e-\L	.	16ee-/L	16e-\L	.	8r	8ryy	.	8r	8ryy	.	.	.	.	.	.	.	.	.
.	.	.	.	.	.	.	.	.	.	.	.	.	.	.	.	.	.	.	.	16ee-/J	16e-\J	.	16ee-/J	16e-\J	.	.	.	.	.	.	.	.	.	.	.	.	.	.	.
.	.	.	.	.	.	.	.	.	.	.	.	.	.	4r	4ryy	.	4r	4ryy	.	8ee-/	8e-\	.	8ee-/	8e-\	.	4r	4ryy	.	4r	4ryy	.	.	.	.	.	.	.	.	.
8G/	8D-X\	.	-rza	.	.	8ee-\	-rza	.	.	.	.	.	.	.	.	.	.	.	.	8ee-/J	8e-\J	.	8ee-/J	8e-\J	.	.	.	.	.	.	.	.	.	.	.	.	.	.	.
=41	=41	=41	=41	=41	=41	=41	=41	=41	=41	=41	=41	=41	=41	=41	=41	=41	=41	=41	=41	=41	=41	=41	=41	=41	=41	=41	=41	=41	=41	=41	=41	=41	=41	=41	=41	=41	=41	=41	=41
4G/	4C\	.	za	.	.	4een\	za	.	1ryy	8cc\	.	1ryy	.	4G/	4C\	.	4e/	4c\	.	4een/	4en\	.	4een/	4en\	.	2g/	2c\	.	2g/	2c\	.	1ryy	1ryy	1ryy	1ryy	1ryy	1ryy	1ryy	1ryy
.	.	.	.	.	.	.	.	.	.	8r	.	.	.	.	.	.	.	.	.	.	.	.	.	.	.	.	.	.	.	.	.	.	.	.	.	.	.	.	.
8B-/	8G\	.	zie-	.	.	8dd\	zie-	.	.	4ccTT\	.	.	.	4G/	4BB-\	.	8d/L	4B-\	.	8dd/L	4e\	.	8dd/L	4e\	.	.	.	.	.	.	.	.	.	.	.	.	.	.	.
8B-/	8G\	.	-mię	.	.	8cc\	-mię	.	.	.	.	.	.	.	.	.	8c/J	.	.	8cc/J	.	.	8cc/J	.	.	.	.	.	.	.	.	.	.	.	.	.	.	.	.
4.A/	4.F\	.	ca-	.	.	4.ff\	ca-	.	.	8cc\	.	.	.	2F/	4AA\	.	4.f/	2A\	.	4.ff/	2cc\	.	4.ff/	2f\	.	2f/	2A\	.	2f/	2A\	.	.	.	.	.	.	.	.	.
.	.	.	.	.	.	.	.	.	.	8r	.	.	.	.	.	.	.	.	.	.	.	.	.	.	.	.	.	.	.	.	.	.	.	.	.	.	.	.	.
.	.	.	.	.	.	.	.	.	.	4ccTT\	.	.	.	.	4C\	.	.	.	.	.	.	.	.	.	.	.	.	.	.	.	.	.	.	.	.	.	.	.	.
8A/	8F\	.	-łą	.	.	8ee\	-łą	.	.	.	.	.	.	.	.	.	8e/	.	.	8ee/	.	.	8ee/	.	.	.	.	.	.	.	.	.	.	.	.	.	.	.	.
=42	=42	=42	=42	=42	=42	=42	=42	=42	=42	=42	=42	=42	=42	=42	=42	=42	=42	=42	=42	=42	=42	=42	=42	=42	=42	=42	=42	=42	=42	=42	=42	=42	=42	=42	=42	=42	=42	=42	=42
!	!LO:MO:null:mod=!LO&colon;TX&colon;a&colon;t=[rit.]	!	!	!	!	!LO:MO:null:mod=!LO&colon;TX&colon;a&colon;t=[rit.]	!	!	!	!LO:MO:null:mod=!LO&colon;TX&colon;a&colon;t=[rit.]	!	!	!	!LO:MO:null:mod=!LO&colon;TX&colon;a&colon;t=[rit.]	!	!	!LO:MO:null:mod=!LO&colon;TX&colon;a&colon;t=[rit.]	!	!	!	!LO:MO:null:mod=!LO&colon;TX&colon;a&colon;t=[rit.]	!	!LO:MO:null:mod=!LO&colon;TX&colon;a&colon;t=[rit.]	!	!	!LO:MO:null:mod=!LO&colon;TX&colon;a&colon;t=[rit.]	!	!	!	!	!	!	!	!	!	!	!	!	!
!	!	!	!	!	!	!	!	!	!	!	!	!	!	!	!	!	!	!	!	!	!	!	!	!	!	!	!	!	!LO:TX:a:t=rit.	!	!	!	!	!	!	!	!	!	!
8B-/	8G\	.	tę	.	.	8dd\	tę	.	1ryy	8cc\	.	1ryy	.	8F/L	2BB-\	.	4d/	2B-\	.	4dd/	4dd\	.	4dd/	4d\	.	8f/Lyy	8F\Lyy	.	8f/L	8F\L	.	1ryy	1ryy	1ryy	1ryy	1ryy	1ryy	1ryy	1ryy
8B-/	8G\	.	ro-	.	.	8ee\	ro-	.	.	8r	.	.	.	8G/	.	.	.	.	.	.	.	.	.	.	.	8e/yy	8G\yy	.	8e/	8G\	.	.	.	.	.	.	.	.	.
8d-X/	8E\	.	-dzo-	.	.	8gg;\	-dzo-	.	.	8cc\	.	.	.	8E/	.	.	4d-X/	.	.	4dd-X/	4dd-\	.	4dd-X/	4d-X\	.	8g/yy	8E\yy	.	8g/	8E\	.	.	.	.	.	.	.	.	.
8d-/	8F\	.	-ną	.	.	8ff\	-ną	.	.	8r	.	.	.	8F/J	.	.	.	.	.	.	.	.	.	.	.	8f/Jyy	8F\Jyy	.	8f/J	8F\J	.	.	.	.	.	.	.	.	.
!	!	!	!	!	!	!	!	!	!	!	!	!	!	!	!	!	!	!	!	!	!	!	!	!	!	!LO:MO:null:mod=!LO&colon;TX&colon;a&colon;t=[a tempo]	!	!	!	!	!	!	!	!	!	!	!	!	!
!	!LO:MO:null:mod=!LO&colon;TX&colon;a&colon;t=[a tempo]	!	!	!	!	!LO:MO:null:mod=!LO&colon;TX&colon;a&colon;t=[a tempo]	!	!	!	!LO:MO:null:mod=!LO&colon;TX&colon;a&colon;t=[a tempo]	!	!	!	!LO:MO:null:mod=!LO&colon;TX&colon;a&colon;t=[a tempo]	!	!	!	!LO:MO:null:mod=!LO&colon;TX&colon;a&colon;t=[a tempo]	!	!	!LO:MO:null:mod=!LO&colon;TX&colon;a&colon;t=[a tempo]	!	!LO:MO:null:mod=!LO&colon;TX&colon;a&colon;t=[a tempo]	!	!	!	!	!	!	!	!	!	!	!	!	!	!	!	!
!	!	!	!	!	!	!	!	!	!	!	!	!	!	!	!	!	!	!	!	!	!	!	!	!	!	!LO:SIC:s=[4f	!LO:SIC:s=[4F	!	!LO:TX:a:t=a tempo	!	!	!	!	!	!	!	!	!	!
4c/	4A\	.	na-	.	.	4ff\	na-	.	.	2ccTT\	.	.	.	[4F/	4AA\	.	[4c/	[4c\	.	(4cc/	4cc\	.	(4cc/	[4c\	.	[yy4f/yy	[yy4F\yy	.	[4f/	[4F\	.	.	.	.	.	.	.	.	.
8A/	8A\	.	-szą]	.	.	8cc\	-szą	.	.	.	.	.	.	8F/]	8FF\	.	8c/]	8c\]	.	8a/)	8a\	.	8a/)	8c\]	.	8f/]yy	8F\]yy	.	8f/]	8F\]	.	.	.	.	.	.	.	.	.
8r	8ryy	.	.	.	.	8r	.	.	.	.	.	.	.	8r	8ryy	.	8r	8ryy	.	8r	8ryy	.	8r	8ryy	.	8ryy	8ryy	.	8r	8ryy	.	.	.	.	.	.	.	.	.
*v	*v	*	*	*	*	*	*	*	*	*	*	*	*	*	*	*	*	*	*	*	*	*	*	*	*	*	*	*	*	*	*	*	*	*	*	*	*	*	*
!!LO:PB:g=original
=43	=43	=43	=43	=43	=43	=43	=43	=43	=43	=43	=43	=43	=43	=43	=43	=43	=43	=43	=43	=43	=43	=43	=43	=43	=43	=43	=43	=43	=43	=43	=43	=43	=43	=43	=43	=43	=43	=43
4A\	Za	Za	.	.	4cc\	Za	.	1ryy	8cc\	.	1ryy	.	4F#X/	4FF#X\	.	4A/	4A\	.	4cc/	4a\	.	4cc/	4a\	.	4c/	4c\	.	4a/	4e-X\	.	1ryy	1ryy	1ryy	1ryy	1ryy	1ryy	1ryy	1ryy
.	.	.	.	.	.	.	.	.	8r	.	.	.	.	.	.	.	.	.	.	.	.	.	.	.	.	.	.	.	.	.	.	.	.	.	.	.	.	.
8G\	wol-	wol-	.	.	8b-\	wol-	.	.	4ccTT\	.	.	.	8G/L	8GG\L	.	8G/L	8G\L	.	8b-X/L	8b-\L	.	8b-X/L	4g\	.	8B-/L	8B-\L	.	4g/	4d\	.	.	.	.	.	.	.	.	.
8A\	-ność	-ność	.	.	8cc\	-ność	.	.	.	.	.	.	8A/J	8AA\J	.	8A/J	8A\J	.	8cc/J	8cc\J	.	8cc/J	.	.	8c/J	8c\J	.	.	.	.	.	.	.	.	.	.	.	.
4.B-\	wszy-	wszy-	.	.	4.dd\	wszy-	.	.	8cc\	.	.	.	4G/	4BB-\	.	4.B-/	4.B-\	.	4dd/	4dd\	.	4dd/	4g\	.	[4d/	4d\	.	4g/	4d\	.	.	.	.	.	.	.	.	.
.	.	.	.	.	.	.	.	.	8r	.	.	.	.	.	.	.	.	.	.	.	.	.	.	.	.	.	.	.	.	.	.	.	.	.	.	.	.	.
.	.	.	.	.	.	.	.	.	4ccTT\	.	.	.	4D/	4D\	.	.	.	.	4cc/	4cc\	.	4cc/	4f#X\	.	4d/]	4c\	.	4f#X/	4c\	.	.	.	.	.	.	.	.	.
8A\	-stkich	-stkich	.	.	8cc\	-stkich	.	.	.	.	.	.	.	.	.	8A/	8A\	.	.	.	.	.	.	.	.	.	.	.	.	.	.	.	.	.	.	.	.	.
=44	=44	=44	=44	=44	=44	=44	=44	=44	=44	=44	=44	=44	=44	=44	=44	=44	=44	=44	=44	=44	=44	=44	=44	=44	=44	=44	=44	=44	=44	=44	=44	=44	=44	=44	=44	=44	=44	=44
*^	*	*	*	*	*	*	*	*	*	*	*	*	*	*	*	*	*	*	*	*	*	*	*	*	*	*	*	*	*	*	*	*	*	*	*	*	*	*
8G\	2ryyyy	za	za	.	.	8b-\	za	.	1ryy	8cc\	.	2ryy	.	2G/	4GG\	.	2B-/	2B-\	.	4b-X/	4b-\	.	4b-X/	2g\	.	2d/	2B-\	.	4g/	2d\	.	1ryy	1ryy	1ryy	1ryy	1ryy	1ryy	1ryy	1ryy
8B-\	.	na-	na-	.	.	8dd\	na-	.	.	8r	.	.	.	.	.	.	.	.	.	.	.	.	.	.	.	.	.	.	.	.	.	.	.	.	.	.	.	.	.
8G\	.	-szą	-szą	.	.	8b-\	-szą	.	.	8cc\	.	.	.	.	4BB-\	.	.	.	.	4g/	4g\	.	4g/	.	.	.	.	.	4d/	.	.	.	.	.	.	.	.	.	.
8G\	.	i	i	.	.	8g/	i	.	.	8r	.	.	.	.	.	.	.	.	.	.	.	.	.	.	.	.	.	.	.	.	.	.	.	.	.	.	.	.	.
2c/	2C\	wa-	wa-	.	.	2cc\	wa-	.	.	2ccTT\	.	2CTT\	.	2C/	2C\	.	4F/	4F\	.	4d/	4d\	.	4d/	4d\	.	4d/	2B-\	.	4d/	4d\	.	.	.	.	.	.	.	.	.
.	.	.	.	.	.	.	.	.	.	.	.	.	.	.	.	.	4G/	4G\	.	4e/	4e\	.	4e/	4e\	.	4e/	.	.	4e/	4B-\	.	.	.	.	.	.	.	.	.
*	*	*	*	*	*	*	*	*	*	*	*	*	*	*	*	*	*v	*v	*	*	*	*	*	*	*	*	*	*	*	*	*	*	*	*	*	*	*	*	*
=45	=45	=45	=45	=45	=45	=45	=45	=45	=45	=45	=45	=45	=45	=45	=45	=45	=45	=45	=45	=45	=45	=45	=45	=45	=45	=45	=45	=45	=45	=45	=45	=45	=45	=45	=45	=45	=45	=45
4F/	4F\	-szą!	-szą!	.	.	4f/	-szą!	.	1ryy	4cc\	.	4FF/	.	4F/	4FF\	.	4A/	.	4f/	4f\	.	4f/	4f\	.	4c/	4A\	.	4A/	4A\	.	1ryy	1ryy	1ryy	1ryy	1ryy	1ryy	1ryy	1ryy
4ryy	4ryy	.	.	.	.	4ryy	.	.	.	4r	.	4r	.	2ryy	2ryy	.	4ryy	.	4r	4ryy	.	8.a/L	8.f\L	.	4ryy	4ryy	.	4ryy	4ryy	.	.	.	.	.	.	.	.	.
.	.	.	.	.	.	.	.	.	.	.	.	.	.	.	.	.	.	.	.	.	.	16f/Jk	16d\Jk	.	.	.	.	.	.	.	.	.	.	.	.	.	.	.
2ryy	2ryy	.	.	.	.	2ryy	.	.	.	4r	.	4r	.	.	.	.	2ryy	.	2r	2ryy	.	[2cc/	[2c\	.	2ryy	2ryy	.	2ryy	2ryy	.	.	.	.	.	.	.	.	.
.	.	.	.	.	.	.	.	.	.	4ccTT\	.	8.C/L	.	8.F/L	8.D\L	.	.	.	.	.	.	.	.	.	.	.	.	.	.	.	.	.	.	.	.	.	.	.
.	.	.	.	.	.	.	.	.	.	.	.	16C/Jk	.	16G/Jk	16E\Jk	.	.	.	.	.	.	.	.	.	.	.	.	.	.	.	.	.	.	.	.	.	.	.
*	*	*	*	*	*	*	*	*	*	*	*	*	*	*	*	*	*	*	*	*	*	*	*	*	*v	*v	*	*	*	*	*	*	*	*	*	*	*	*
*v	*v	*	*	*	*	*	*	*	*	*	*	*	*	*	*	*	*	*	*	*	*	*	*	*	*	*	*v	*v	*	*	*	*	*	*	*	*	*
=46	=46	=46	=46	=46	=46	=46	=46	=46	=46	=46	=46	=46	=46	=46	=46	=46	=46	=46	=46	=46	=46	=46	=46	=46	=46	=46	=46	=46	=46	=46	=46	=46	=46	=46	=46
1ryy	.	.	.	.	4r	.	.	1ryy	4cc\	.	4FF/	.	4A/	4F\	.	1ryy	.	4r	4ryy	.	4cc/]	4c\]	.	1ryy	.	1ryy	.	1ryy	1ryy	1ryy	1ryy	1ryy	1ryy	1ryy	1ryy
.	.	.	.	.	8.a/	Hej	.	.	4r	.	4r	.	2ryy	2ryy	.	.	.	8.a/L	8.f\L	.	8.a/L	8.f\L	.	.	.	.	.	.	.	.	.	.	.	.	.
.	.	.	.	.	16f/	na	.	.	.	.	.	.	.	.	.	.	.	16f/Jk	16d\Jk	.	16f/Jk	16d\Jk	.	.	.	.	.	.	.	.	.	.	.	.	.
.	.	.	.	.	[2cc\	bój	.	.	4r	.	4r	.	.	.	.	.	.	[2cc/	[2c\	.	[2cc/	[2c\	.	.	.	.	.	.	.	.	.	.	.	.	.
.	.	.	.	.	.	.	.	.	4ccT\	.	8.C/L	.	8.F/L	8.D\L	.	.	.	.	.	.	.	.	.	.	.	.	.	.	.	.	.	.	.	.	.
.	.	.	.	.	.	.	.	.	.	.	16C/Jk	.	16G/Jk	16E\Jk	.	.	.	.	.	.	.	.	.	.	.	.	.	.	.	.	.	.	.	.	.
=47	=47	=47	=47	=47	=47	=47	=47	=47	=47	=47	=47	=47	=47	=47	=47	=47	=47	=47	=47	=47	=47	=47	=47	=47	=47	=47	=47	=47	=47	=47	=47	=47	=47	=47	=47
*	*	*	*	*	*	*	*	*	*	*	*	*	*	*	*	*	*	*	*	*	*	*	*	*	*	*^	*	*	*	*	*	*	*	*	*
2ryy	.	.	.	.	8cc\]	.	.	1ryy	4cc\	.	4FF/	.	4A/	4F\	.	2ryy	.	2cc/_	8c\L]	.	2cc/_	8c\L]	.	1ryy	.	2ryy	2ryy	.	1ryy	1ryy	1ryy	1ryy	1ryy	1ryy	1ryy	1ryy
.	.	.	.	.	8r	.	.	.	.	.	.	.	.	.	.	.	.	.	8c\	.	.	8c\	.	.	.	.	.	.	.	.	.	.	.	.	.	.
.	.	.	.	.	8.a/	Hej	.	.	4ryy	.	4r	.	4r	4ryy	.	.	.	.	8f\	.	.	8f\	.	.	.	.	.	.	.	.	.	.	.	.	.	.
.	.	.	.	.	.	.	.	.	.	.	.	.	.	.	.	.	.	.	8a\J	.	.	8a\J	.	.	.	.	.	.	.	.	.	.	.	.	.	.
.	.	.	.	.	16f/	na	.	.	.	.	.	.	.	.	.	.	.	.	.	.	.	.	.	.	.	.	.	.	.	.	.	.	.	.	.	.
8ryy	.	.	.	.	2cc\	bój!	.	.	2ryy	.	8r	.	8r	8ryy	.	8ryy	.	8cc/L]	[2cc\	.	8cc/L]	[2cc\	.	.	.	8ryy	8ryy	.	.	.	.	.	.	.	.	.
8C/	na	na	.	.	.	.	.	.	.	.	8C/L	.	8C/L	8C\L	.	8C\L	.	8c/	.	.	8c/	.	.	.	.	8c/L	8c\L	.	.	.	.	.	.	.	.	.
8F\	bój	bój	.	.	.	.	.	.	.	.	8FF/	.	8F/	8F\	.	8F\	.	8f/	.	.	8f/	.	.	.	.	8f/	8f\	.	.	.	.	.	.	.	.	.
8A\	na	na	.	.	.	.	.	.	.	.	8C/J	.	8A/J	8A\J	.	8A\J	.	8a/J	.	.	8a/J	.	.	.	.	8a/J	8a\J	.	.	.	.	.	.	.	.	.
!!LO:PB:g=original
=48	=48	=48	=48	=48	=48	=48	=48	=48	=48	=48	=48	=48	=48	=48	=48	=48	=48	=48	=48	=48	=48	=48	=48	=48	=48	=48	=48	=48	=48	=48	=48	=48	=48	=48	=48	=48
*	*	*	*	*	*	*	*	*	*	*	*	*	*	*	*	*^	*	*	*	*	*	*	*	*^	*	*	*	*	*	*	*	*	*	*	*	*
!	!	!	!	!	!	!	!	!	!	!	!	!LO:MO:mod=!null:null	!	!	!	!	!	!	!	!	!	!	!	!	!	!	!	!	!	!	!	!	!	!	!	!	!	!
!	!	!	!	!	!	!	!	!	!	!	!	!LO:DY:rj:a	!	!	!	!	!	!	!	!	!	!	!	!	!	!	!	!	!	!	!	!	!	!	!	!	!	!
8c\	.	.	.	.	8cc\	.	.	1ryy	1cc\T	mp < [[	8.FF/L	ff	8.F/L	8.F\L	.	2ryy	8.A\L	.	8.cc/L	8cc\]	.	8.cc/L	8cc\]	.	8.a/L	2r	.	8.a/L	8a\	.	1ryy	1ryy	1ryy	1ryy	1ryy	1ryy	1ryy	1ryy
16r	.	.	.	.	16r	.	.	.	.	.	.	.	.	.	.	.	.	.	.	8r	.	.	8r	.	.	.	.	.	8r	.	.	.	.	.	.	.	.	.
16F\	na	na	.	.	16dd\	na	.	.	.	.	16FF/Jk	.	16D/Jk	16D\Jk	.	.	16A\Jk	.	16dd/Jk	.	.	16dd/Jk	.	.	16f/Jk	.	.	16f/Jk	.	.	.	.	.	.	.	.	.	.
*	*	*	*	*	*	*	*	*	*	*	*rep	*	*	*	*	*	*	*	*	*	*	*	*	*	*	*	*	*	*	*	*	*	*	*	*	*	*	*
8.A\	bój	bój	.	.	8.cc\	bój	.	.	.	.	8.FF/L	.	8.F/L	8.F\L	.	.	8.A\L	.	8.cc/L	4r	.	8.cc/L	4r	.	8.a/L	.	.	8.a/L	4r	.	.	.	.	.	.	.	.	.
16F\	na	na	.	.	16dd\	na	.	.	.	.	16FF/Jk	.	16D/Jk	16D\Jk	.	.	16A\Jk	.	16dd/Jk	.	.	16dd/Jk	.	.	16f/Jk	.	.	16f/Jk	.	.	.	.	.	.	.	.	.	.
*	*	*	*	*	*	*	*	*	*	*	*Xrep	*	*	*	*	*	*	*	*	*	*	*	*	*	*	*	*	*	*	*	*	*	*	*	*	*	*	*
*	*	*	*	*	*	*	*	*	*	*	*rep	*	*	*	*	*	*	*	*	*	*	*	*	*	*	*	*	*	*	*	*	*	*	*	*	*	*	*
8.A\	bój	bój	.	.	8.cc\	bój	.	.	.	.	8.FF/L	.	8.F/L	8.F\L	.	8.A/L	8.A\L	.	8.cc/L	4r	.	8.cc/L	8.cc\L	.	8.a/L	4r	.	8.a/L	8.a\L	.	.	.	.	.	.	.	.	.
16F\	na	na	.	.	16dd\	na	.	.	.	.	16FF/Jk	.	16D/Jk	16D\Jk	.	16A/Jk	16A\Jk	.	16dd/Jk	.	.	16dd/Jk	16dd\Jk	.	16f/Jk	.	.	16f/Jk	16f\Jk	.	.	.	.	.	.	.	.	.
*	*	*	*	*	*	*	*	*	*	*	*Xrep	*	*	*	*	*	*	*	*	*	*	*	*	*	*	*	*	*	*	*	*	*	*	*	*	*	*	*
*	*	*	*	*	*	*	*	*	*	*	*rep	*	*	*	*	*	*	*	*	*	*	*	*	*	*	*	*	*	*	*	*	*	*	*	*	*	*	*
8.A\	bój	bój	.	.	8.cc\	bój	.	.	.	.	8.FF/L	.	8.F/L	8.F\L	.	8.A/L	8.A\L	.	8.cc/L	8.cc\L	.	8.cc/L	8.cc\L	.	8.a/L	8.a\L	.	8.a/L	8.a\L	.	.	.	.	.	.	.	.	.
16F\	na	na	.	.	16dd\	na	.	.	.	.	16FF/Jk	.	16D/Jk	16D\Jk	.	16A/Jk	16A\Jk	.	16dd/Jk	16dd\Jk	.	16dd/Jk	16dd\Jk	.	16f/Jk	16f\Jk	.	16f/Jk	16f\Jk	.	.	.	.	.	.	.	.	.
*	*	*	*	*	*	*	*	*	*	*	*Xrep	*	*	*	*	*	*	*	*	*	*	*	*	*	*	*	*	*	*	*	*	*	*	*	*	*	*	*
=49	=49	=49	=49	=49	=49	=49	=49	=49	=49	=49	=49	=49	=49	=49	=49	=49	=49	=49	=49	=49	=49	=49	=49	=49	=49	=49	=49	=49	=49	=49	=49	=49	=49	=49	=49	=49	=49	=49
*^	*	*	*	*	*	*	*	*	*	*	*	*	*	*	*	*	*	*	*	*	*	*	*	*	*	*	*	*	*	*	*	*	*	*	*	*	*	*
2ryyyy	4A\	bój	bój	.	.	4cc\	bój	.	1ryy	4cc\	ff	4FF/	.	2ryy	4F\	.	4A/	2ryy	.	4cc/	4cc\	.	4cc/	4cc\	.	4a/	4f\	.	4a/	4f\	.	1ryy	1ryy	1ryy	1ryy	1ryy	1ryy	1ryy	1ryy
.	4r	.	.	.	.	4r	.	.	.	4r	.	4r	.	.	4r	.	4r	.	.	4r	4ryy	.	4r	4ryy	.	4r	4ryy	.	4r	4ryy	.	.	.	.	.	.	.	.	.
2A/	2F\	na	na	.	.	2dd\	na	.	.	2r	.	4FF/	.	2D/	2D\	.	2A/	2A\	.	2dd/	2f\	.	2dd/	2f\	.	2f/	2d\	.	2a/	2d\	.	.	.	.	.	.	.	.	.
.	.	.	.	.	.	.	.	.	.	.	.	4FF/	.	.	.	.	.	.	.	.	.	.	.	.	.	.	.	.	.	.	.	.	.	.	.	.	.	.	.
=50	=50	=50	=50	=50	=50	=50	=50	=50	=50	=50	=50	=50	=50	=50	=50	=50	=50	=50	=50	=50	=50	=50	=50	=50	=50	=50	=50	=50	=50	=50	=50	=50	=50	=50	=50	=50	=50	=50	=50
!	!	!	!	!	!	!LO:TX:t=P:problem=najwyższy dźwięk w nawiasie	!	!	!	!	!	!	!	!	!	!	!	!	!	!	!	!	!	!	!	!	!	!	!	!	!	!	!	!	!	!	!	!	!
[1A/	[1F\	bój!	bój!	.	.	1aa\ [1ff\ [1cc\	bój!	.	1ryy	1cc\TT	.	1FF/TT	.	[1F/	[1FF\	.	[1c/	[1A\	.	[1ff/	[1f\	.	[1ff/	[1f\	.	[1a/	[1f\	.	[1a/	[1c\	.	1ryy	1ryy	1ryy	1ryy	1ryy	1ryy	1ryy	1ryy
=51	=51	=51	=51	=51	=51	=51	=51	=51	=51	=51	=51	=51	=51	=51	=51	=51	=51	=51	=51	=51	=51	=51	=51	=51	=51	=51	=51	=51	=51	=51	=51	=51	=51	=51	=51	=51	=51	=51	=51
*	*	*	*	*	*	*^	*	*	*	*	*	*	*	*	*	*	*	*	*	*	*	*	*	*	*	*	*	*	*	*	*	*	*	*	*	*	*	*	*
4A/]	4F\]	.	.	.	.	4ff/]	4cc\]	.	.	1ryy	4cc\	.	4FF/	.	4F/]	4FF\]	.	4c/]	4A\]	.	4ff/]	4f\]	.	4ff/]	4f\]	.	4a/]	4f\]	.	4a/]	4c\]	.	1ryy	1ryy	1ryy	1ryy	1ryy	1ryy	1ryy	1ryy
4ryy	4ryy	.	.	.	.	4ryy	4ryy	.	.	.	4ryy	.	4ryy	.	4ryy	4ryy	.	4ryy	4ryy	.	4ryy	4ryy	.	4ryy	4ryy	.	4ryy	4ryy	.	4ryy	4ryy	.	.	.	.	.	.	.	.	.
2ryy	2ryy	.	.	.	.	2ryy	2ryy	.	.	.	2ryy	.	2ryy	.	2ryy	2ryy	.	2ryy	2ryy	.	2ryy	2ryy	.	2ryy	2ryy	.	2ryy	2ryy	.	2ryy	2ryy	.	.	.	.	.	.	.	.	.
*v	*v	*	*	*	*	*	*	*	*	*	*	*	*	*	*v	*v	*	*v	*v	*	*v	*v	*	*v	*v	*	*v	*v	*	*v	*v	*	*	*	*	*	*	*	*	*
*	*	*	*	*	*v	*v	*	*	*	*	*	*	*	*	*	*	*	*	*	*	*	*	*	*	*	*	*	*	*	*	*	*	*
==	==	==	==	==	==	==	==	==	==	==	==	==	==	==	==	==	==	==	==	==	==	==	==	==	==	==	==	==	==	==	==	==
*-	*-	*-	*-	*-	*-	*-	*-	*-	*-	*-	*-	*-	*-	*-	*-	*-	*-	*-	*-	*-	*-	*-	*-	*-	*-	*-	*-	*-	*-	*-	*-	*-
!!LO:MO:ori
!!!system-decoration: [(s1,s2)][(s3,s4)][(s5,s6)][(s7,s8)][(s9,s10)][(s11,s12)][(s13,s14)]s15,s16,s17[(s18,s19)]
!!LO:MO:end
!!LO:MO:mod
!! !!!system-decoration: [(g1)][(g2)][(g3)][(g4)],s17
!!LO:MO:end
!!!RDF**kern: > = above
!!!RDF**kern: < = below
!!!ENC: Andrzej Gręziak
!!!END: 2021-11-14
!!!ENC: Leszek Kubiak
!!!END: 2021-11-17
!!!ENC-modern: Andrzej Borzym
!!!END-modern: 2022-08-29
!!!YEC: Copyright 2022 Narodowy Instytut Fryderyka Chopina (https://polishscores.org)
!!!YEM: License CC-BY-4.0 (https://creativecommons.org/licenses/by/4.0)
